;FLAVOR:Marlin
;TIME:19997
;Filament used: 13.8291m
;Layer height: 0.2
;MINX:65.347
;MINY:61.731
;MINZ:0.2
;MAXX:165.665
;MAXY:198.481
;MAXZ:15.4
;Generated with Cura_SteamEngine 4.5.0
M140 S50
M105
M190 S50
M104 S200
M105
M109 S200
M82 ;absolute extrusion mode
; Ender 3 Custom Start G-code
G92 E0 ; Reset Extruder
G28 ; Home all axes
G1 Z2.0 F3000 ; Move Z Axis up little to prevent scratching of Heat Bed
G1 X0.1 Y20 Z0.3 F5000.0 ; Move to start position
G1 X0.1 Y200.0 Z0.3 F1500.0 E15 ; Draw the first line
G1 X0.4 Y200.0 Z0.3 F5000.0 ; Move to side a little
G1 X0.4 Y20 Z0.3 F1500.0 E30 ; Draw the second line
G92 E0 ; Reset Extruder
G1 Z2.0 F3000 ; Move Z Axis up little to prevent scratching of Heat Bed
G1 X5 Y20 Z0.3 F5000.0 ; Move over to prevent blob squish
G92 E0
G92 E0
G1 F2700 E-5
;LAYER_COUNT:77
;LAYER:0
M107
;MESH:Object 1
G0 F6000 X115.217 Y92.782 Z0.2
;TYPE:WALL-INNER
G1 F2700 E0
G1 F1200 X115.217 Y88.275 E0.1499
G1 X113.982 Y88.192 E0.19107
G1 X113.736 Y88.145 E0.1994
G1 X113.524 Y88.072 E0.20686
G1 X113.308 Y87.965 E0.21488
G1 X113.112 Y87.833 E0.22274
G1 X112.934 Y87.679 E0.23057
G1 X112.777 Y87.502 E0.23843
G1 X112.643 Y87.307 E0.2463
G1 X112.537 Y87.1 E0.25404
G1 X112.459 Y86.878 E0.26187
G1 X112.405 Y86.625 E0.27047
G1 X112.397 Y86.542 E0.27324
G1 X112.387 Y86.376 E0.27877
G1 X112.401 Y86.138 E0.2867
G1 X112.447 Y85.909 E0.29447
G1 X112.527 Y85.675 E0.3027
G1 X112.63 Y85.466 E0.31045
G1 X112.759 Y85.274 E0.31814
G1 X112.917 Y85.092 E0.32616
G1 X113.091 Y84.936 E0.33393
G1 X113.287 Y84.802 E0.34183
G1 X113.494 Y84.696 E0.34956
G1 X113.716 Y84.617 E0.3574
G1 X113.957 Y84.566 E0.36559
G1 X114.902 Y84.496 E0.39711
G1 X115.217 Y83.679 E0.42623
G1 X115.217 Y79.987 E0.54903
G1 X115.217 Y79.986 E0.54906
G1 X115.217 Y79.776 E0.55605
G1 X115.007 Y79.788 E0.5605
G1 X113.377 Y79.886 E0.61481
G1 X112.522 Y80.056 E0.64381
G1 X111.712 Y80.332 E0.67227
G1 X110.955 Y80.707 E0.70037
G1 X110.254 Y81.173 E0.72837
G1 X109.625 Y81.722 E0.75613
G1 X109.065 Y82.346 E0.78402
G1 X108.592 Y83.042 E0.81201
G1 X108.209 Y83.792 E0.84002
G1 X107.922 Y84.597 E0.86844
G1 X107.742 Y85.449 E0.89741
G1 X107.677 Y86.331 E0.92682
G1 X107.728 Y87.216 E0.95631
G1 X107.898 Y88.071 E0.9853
G1 X108.174 Y88.882 E1.01379
G1 X108.548 Y89.639 E1.04188
G1 X109.013 Y90.339 E1.06983
G1 X109.563 Y90.969 E1.09764
G1 X110.186 Y91.529 E1.1255
G1 X110.882 Y92.003 E1.15351
G1 X111.632 Y92.386 E1.18152
G1 X112.437 Y92.673 E1.20995
G1 X113.289 Y92.853 E1.23891
G1 X115.004 Y92.981 E1.29611
G1 X115.217 Y92.996 E1.30321
G1 X115.217 Y92.783 E1.3077
G1 X115.217 Y92.782 E1.30773
G0 F6000 X114.817 Y92.565
G1 F1200 X114.817 Y92.352 E1.31482
G1 X114.817 Y92.351 E1.31485
G1 X114.817 Y88.649 E1.43798
G1 X113.928 Y88.589 E1.46762
G1 X113.637 Y88.533 E1.47747
G1 X113.369 Y88.441 E1.4869
G1 X113.105 Y88.31 E1.4967
G1 X112.871 Y88.154 E1.50605
G1 X112.65 Y87.962 E1.51579
G1 X112.462 Y87.751 E1.52519
G1 X112.299 Y87.513 E1.53478
G1 X112.169 Y87.259 E1.54427
G1 X112.073 Y86.987 E1.55387
G1 X112.009 Y86.685 E1.56414
G1 X111.999 Y86.58 E1.56764
G1 X111.999 Y86.566 E1.56811
G1 X111.989 Y86.402 E1.57357
G1 X111.987 Y86.376 E1.57444
G1 X112.004 Y86.085 E1.58414
G1 X112.061 Y85.801 E1.59377
G1 X112.156 Y85.522 E1.60357
G1 X112.282 Y85.267 E1.61303
G1 X112.44 Y85.031 E1.62248
G1 X112.633 Y84.809 E1.63226
G1 X112.843 Y84.621 E1.64164
G1 X113.081 Y84.458 E1.65123
G1 X113.335 Y84.328 E1.66072
G1 X113.583 Y84.241 E1.66947
G1 X113.607 Y84.232 E1.67032
G1 X113.632 Y84.227 E1.67117
G1 X113.873 Y84.176 E1.67936
G1 X113.903 Y84.169 E1.68038
G1 X114.62 Y84.116 E1.7043
G1 X114.817 Y83.605 E1.72251
G1 X114.817 Y80.412 E1.82871
G1 X114.817 Y80.411 E1.82874
G1 X114.817 Y80.201 E1.83573
G1 X114.607 Y80.213 E1.84018
G1 X113.428 Y80.284 E1.87947
G1 X112.626 Y80.443 E1.90666
G1 X111.866 Y80.702 E1.93337
G1 X111.155 Y81.054 E1.95976
G1 X110.497 Y81.492 E1.98605
G1 X109.906 Y82.007 E2.01212
G1 X109.381 Y82.593 E2.03829
G1 X108.937 Y83.246 E2.06455
G1 X108.577 Y83.951 E2.09088
G1 X108.308 Y84.706 E2.11754
G1 X108.139 Y85.505 E2.1447
G1 X108.078 Y86.334 E2.17235
G1 X108.126 Y87.165 E2.20003
G1 X108.285 Y87.967 E2.22723
G1 X108.544 Y88.728 E2.25396
G1 X108.895 Y89.439 E2.28034
G1 X109.332 Y90.096 E2.30658
G1 X109.848 Y90.688 E2.3327
G1 X110.433 Y91.213 E2.35884
G1 X111.086 Y91.658 E2.38513
G1 X111.791 Y92.018 E2.41145
G1 X112.546 Y92.287 E2.43811
G1 X113.345 Y92.456 E2.46528
G1 X114.604 Y92.55 E2.50727
G1 X114.817 Y92.565 E2.51177
G0 F6000 X114.417 Y92.134
;TYPE:WALL-OUTER
G1 F1200 X114.417 Y89.023 E2.61524
G1 X113.873 Y88.986 E2.63338
G1 X113.537 Y88.921 E2.64476
G1 X113.211 Y88.809 E2.65622
G1 X112.905 Y88.658 E2.66757
G1 X112.626 Y88.472 E2.67872
G1 X112.37 Y88.249 E2.69002
G1 X112.148 Y88 E2.70111
G1 X111.955 Y87.719 E2.71245
G1 X111.8 Y87.415 E2.7238
G1 X111.688 Y87.099 E2.73495
G1 X111.613 Y86.745 E2.74699
G1 X111.601 Y86.618 E2.75123
G1 X111.586 Y86.377 E2.75926
G1 X111.607 Y86.034 E2.77069
G1 X111.675 Y85.692 E2.78229
G1 X111.784 Y85.372 E2.79353
G1 X111.937 Y85.064 E2.80497
G1 X112.122 Y84.786 E2.81608
G1 X112.346 Y84.529 E2.82741
G1 X112.594 Y84.307 E2.83849
G1 X112.875 Y84.114 E2.84982
G1 X113.179 Y83.959 E2.86117
G1 X113.495 Y83.847 E2.87232
G1 X113.849 Y83.772 E2.88436
G1 X114.338 Y83.736 E2.90067
G1 X114.417 Y83.531 E2.90797
G1 X114.417 Y80.626 E3.0046
G1 X113.479 Y80.682 E3.03585
G1 X112.73 Y80.83 E3.06124
G1 X112.02 Y81.072 E3.08619
G1 X111.355 Y81.401 E3.11087
G1 X110.74 Y81.811 E3.13545
G1 X110.187 Y82.292 E3.15983
G1 X109.697 Y82.84 E3.18428
G1 X109.282 Y83.45 E3.20882
G1 X108.945 Y84.11 E3.23347
G1 X108.694 Y84.815 E3.25836
G1 X108.536 Y85.561 E3.28372
G1 X108.479 Y86.337 E3.3096
G1 X108.524 Y87.114 E3.33548
G1 X108.672 Y87.863 E3.36088
G1 X108.914 Y88.574 E3.38586
G1 X109.242 Y89.239 E3.41052
G1 X109.651 Y89.853 E3.43506
G1 X110.133 Y90.407 E3.45948
G1 X110.68 Y90.897 E3.48391
G1 X111.29 Y91.313 E3.50846
G1 X111.95 Y91.65 E3.53311
G1 X112.655 Y91.901 E3.558
G1 X113.401 Y92.059 E3.58336
G1 X114.417 Y92.134 E3.61725
G1 F2700 E-1.38275
G0 F6000 X114.395 Y92.432
G0 X113.264 Y93.022
G0 X113.522 Y91.202
G0 X113.326 Y102.7
G0 X113.59 Y102.73
G0 X113.561 Y104.146
G0 X113.299 Y104.271
G0 X113.188 Y110.903
G0 X113.784 Y109.169
G0 X114.646 Y109.997
G0 X114.643 Y113.581
G0 X114.088 Y114.101
;TYPE:WALL-INNER
G1 F2700 E3.61725
G1 F1200 X114.998 Y114.196 E3.64768
G1 X115.217 Y114.218 E3.655
G1 X115.217 Y113.998 E3.65961
G1 X115.217 Y113.997 E3.65964
G1 X115.217 Y109.463 E3.81044
G1 X113.982 Y109.38 E3.85161
G1 X113.736 Y109.333 E3.85994
G1 X113.524 Y109.26 E3.8674
G1 X113.308 Y109.153 E3.87542
G1 X113.106 Y109.018 E3.8835
G1 X112.938 Y108.872 E3.8909
G1 X112.778 Y108.692 E3.89891
G1 X112.643 Y108.495 E3.90685
G1 X112.537 Y108.288 E3.91459
G1 X112.458 Y108.066 E3.92243
G1 X112.407 Y107.825 E3.93062
G1 X112.389 Y107.573 E3.93902
G1 X112.401 Y107.326 E3.94725
G1 X112.447 Y107.098 E3.95498
G1 X112.528 Y106.86 E3.96334
G1 X112.623 Y106.668 E3.97047
G1 X112.772 Y106.444 E3.97942
G1 X112.91 Y106.286 E3.98639
G1 X113.091 Y106.124 E3.99447
G1 X113.287 Y105.99 E4.00237
G1 X113.492 Y105.885 E4.01003
G1 X113.71 Y105.808 E4.01772
G1 X113.963 Y105.755 E4.02632
G1 X114.902 Y105.684 E4.05764
G1 X115.217 Y104.867 E4.08676
G1 X115.217 Y101.175 E4.20956
G1 X115.217 Y101.174 E4.20959
G1 X115.217 Y100.964 E4.21658
G1 X115.007 Y100.976 E4.22103
G1 X113.377 Y101.074 E4.27534
G1 X112.522 Y101.245 E4.30434
G1 X111.712 Y101.521 E4.33281
G1 X110.955 Y101.895 E4.36089
G1 X110.254 Y102.363 E4.38892
G1 X109.625 Y102.911 E4.41667
G1 X109.065 Y103.534 E4.44453
G1 X108.592 Y104.23 E4.47252
G1 X108.209 Y104.98 E4.50053
G1 X107.922 Y105.785 E4.52896
G1 X107.742 Y106.637 E4.55792
G1 X107.677 Y107.519 E4.58733
G1 X107.728 Y108.404 E4.61682
G1 X107.898 Y109.26 E4.64584
G1 X108.174 Y110.07 E4.67431
G1 X108.548 Y110.827 E4.70239
G1 X109.013 Y111.528 E4.73037
G1 X109.563 Y112.157 E4.75816
G1 X110.186 Y112.717 E4.78602
G1 X110.882 Y113.191 E4.81403
G1 X111.632 Y113.574 E4.84204
G1 X112.437 Y113.861 E4.87046
G1 X113.288 Y114.041 E4.89939
G1 X114.088 Y114.101 E4.92608
G0 F6000 X114.123 Y113.702
G1 F1200 X114.597 Y113.752 E4.94193
G1 X114.598 Y113.753 E4.94198
G1 X114.817 Y113.774 E4.94929
G1 X114.817 Y113.554 E4.95391
G1 X114.817 Y113.553 E4.95394
G1 X114.817 Y109.837 E5.07754
G1 X113.928 Y109.777 E5.10717
G1 X113.637 Y109.721 E5.11703
G1 X113.369 Y109.629 E5.12645
G1 X113.105 Y109.498 E5.13625
G1 X112.866 Y109.339 E5.1458
G1 X112.654 Y109.155 E5.15514
G1 X112.463 Y108.94 E5.1647
G1 X112.299 Y108.701 E5.17434
G1 X112.169 Y108.447 E5.18383
G1 X112.082 Y108.199 E5.19258
G1 X112.073 Y108.175 E5.19343
G1 X112.068 Y108.15 E5.19428
G1 X112.017 Y107.909 E5.20247
G1 X112.01 Y107.879 E5.20349
G1 X111.988 Y107.581 E5.21343
G1 X112.004 Y107.274 E5.22366
G1 X112.061 Y106.99 E5.23329
G1 X112.156 Y106.71 E5.24313
G1 X112.279 Y106.463 E5.2523
G1 X112.449 Y106.206 E5.26255
G1 X112.627 Y106.002 E5.27156
G1 X112.843 Y105.809 E5.28119
G1 X113.081 Y105.646 E5.29079
G1 X113.335 Y105.516 E5.30028
G1 X113.603 Y105.421 E5.30973
G1 X113.906 Y105.358 E5.32003
G1 X114.62 Y105.304 E5.34384
G1 X114.817 Y104.793 E5.36206
G1 X114.817 Y101.6 E5.46826
G1 X114.817 Y101.599 E5.46829
G1 X114.817 Y101.389 E5.47527
G1 X114.607 Y101.401 E5.47973
G1 X113.428 Y101.472 E5.51902
G1 X112.626 Y101.632 E5.54622
G1 X111.866 Y101.891 E5.57292
G1 X111.155 Y102.242 E5.59929
G1 X110.497 Y102.681 E5.6256
G1 X109.906 Y103.196 E5.65168
G1 X109.381 Y103.781 E5.67782
G1 X108.937 Y104.434 E5.70408
G1 X108.577 Y105.139 E5.73041
G1 X108.308 Y105.894 E5.75707
G1 X108.139 Y106.693 E5.78423
G1 X108.078 Y107.522 E5.81188
G1 X108.126 Y108.353 E5.83956
G1 X108.285 Y109.156 E5.86679
G1 X108.544 Y109.916 E5.8935
G1 X108.895 Y110.627 E5.91987
G1 X109.332 Y111.285 E5.94614
G1 X109.848 Y111.876 E5.97223
G1 X110.433 Y112.401 E5.99838
G1 X111.086 Y112.846 E6.02466
G1 X111.791 Y113.206 E6.05099
G1 X112.546 Y113.475 E6.07765
G1 X113.345 Y113.644 E6.10481
G1 X114.123 Y113.702 E6.13076
G0 F6000 X114.417 Y113.33
;TYPE:WALL-OUTER
G1 F1200 X114.417 Y110.211 E6.2345
G1 X113.873 Y110.174 E6.25263
G1 X113.537 Y110.109 E6.26401
G1 X113.211 Y109.997 E6.27548
G1 X112.905 Y109.846 E6.28683
G1 X112.626 Y109.66 E6.29798
G1 X112.37 Y109.438 E6.30925
G1 X112.148 Y109.188 E6.32037
G1 X111.955 Y108.907 E6.33171
G1 X111.8 Y108.603 E6.34306
G1 X111.688 Y108.287 E6.35421
G1 X111.613 Y107.933 E6.36625
G1 X111.587 Y107.589 E6.37772
G1 X111.607 Y107.223 E6.38991
G1 X111.675 Y106.881 E6.40151
G1 X111.784 Y106.56 E6.41278
G1 X111.934 Y106.258 E6.424
G1 X112.126 Y105.968 E6.43557
G1 X112.345 Y105.717 E6.44665
G1 X112.594 Y105.495 E6.45774
G1 X112.875 Y105.302 E6.46908
G1 X113.179 Y105.147 E6.48043
G1 X113.497 Y105.034 E6.49165
G1 X113.847 Y104.961 E6.50355
G1 X114.338 Y104.924 E6.51992
G1 X114.417 Y104.719 E6.52723
G1 X114.417 Y101.814 E6.62385
G1 X113.479 Y101.87 E6.6551
G1 X112.73 Y102.019 E6.6805
G1 X112.02 Y102.261 E6.70545
G1 X111.355 Y102.589 E6.73012
G1 X110.74 Y102.999 E6.7547
G1 X110.187 Y103.481 E6.7791
G1 X109.697 Y104.028 E6.80352
G1 X109.282 Y104.638 E6.82806
G1 X108.945 Y105.298 E6.85271
G1 X108.694 Y106.003 E6.8776
G1 X108.536 Y106.749 E6.90296
G1 X108.479 Y107.525 E6.92884
G1 X108.524 Y108.302 E6.95473
G1 X108.672 Y109.052 E6.98015
G1 X108.914 Y109.762 E7.0051
G1 X109.242 Y110.427 E7.02977
G1 X109.651 Y111.042 E7.05433
G1 X110.133 Y111.595 E7.07873
G1 X110.68 Y112.085 E7.10315
G1 X111.29 Y112.501 E7.12771
G1 X111.95 Y112.838 E7.15236
G1 X112.655 Y113.089 E7.17725
G1 X113.401 Y113.247 E7.20261
G1 X114.158 Y113.303 E7.22786
G1 X114.417 Y113.33 E7.23652
G1 F2700 E2.23652
G0 F6000 X114.717 Y113.33
G0 X115.414 Y114.437
G0 X115.172 Y116.715
G0 X114.945 Y122.361
;TYPE:WALL-INNER
G1 F2700 E7.23652
G1 F1200 X114.974 Y117.111 E7.41114
G1 X114.975 Y116.911 E7.41779
G1 X114.775 Y116.911 E7.42209
G1 X95.038 Y116.911 E8.07855
G1 X94.557 Y116.883 E8.09457
G1 X94.198 Y116.813 E8.10674
G1 X93.903 Y116.704 E8.1172
G1 X93.688 Y116.58 E8.12545
G1 X93.532 Y116.447 E8.13227
G1 X93.385 Y116.271 E8.1399
G1 X93.284 Y116.104 E8.14639
G1 X93.197 Y115.896 E8.15389
G1 X93.124 Y115.648 E8.16248
G1 X93.085 Y115.44 E8.16952
G1 X93.06 Y115.199 E8.17758
G1 X93.049 Y114.939 E8.18624
G1 X93.056 Y114.245 E8.20932
G1 X93.081 Y113.607 E8.23056
G1 X93.125 Y113.084 E8.24801
G1 X93.184 Y112.691 E8.26123
G1 X93.246 Y112.452 E8.26944
G1 X93.313 Y112.3 E8.27497
G1 X93.371 Y112.284 E8.27697
G1 X93.508 Y112.268 E8.28156
G1 X98.193 Y112.259 E8.43738
G1 X102.943 Y112.257 E8.59537
G1 X103.393 Y110.888 E8.6433
G1 X102.691 Y110.365 E8.67241
G1 X102.153 Y109.753 E8.69952
G1 X100.704 Y107.653 E8.78438
G1 X99.486 Y105.323 E8.87182
G1 X98.544 Y102.747 E8.96305
G1 X97.943 Y99.967 E9.05765
G1 X97.73 Y96.97 E9.15758
G1 X97.943 Y93.971 E9.25758
G1 X98.544 Y91.193 E9.35211
G1 X99.489 Y88.611 E9.44356
G1 X100.701 Y86.293 E9.53056
G1 X102.145 Y84.203 E9.61505
G1 X103.398 Y82.895 E9.6753
G1 X102.878 Y81.68 E9.71925
G1 X93.8 Y81.68 E10.02119
G1 X93.544 Y81.674 E10.02971
G1 X93.373 Y81.657 E10.03542
G1 X93.316 Y81.643 E10.03737
G1 X93.307 Y81.63 E10.0379
G1 X93.253 Y81.507 E10.04237
G1 X93.194 Y81.281 E10.05014
G1 X93.129 Y80.876 E10.06378
G1 X93.089 Y80.425 E10.07884
G1 X93.06 Y79.764 E10.10084
G1 X93.05 Y79.047 E10.12469
G1 X93.057 Y78.75 E10.13457
G1 X93.075 Y78.557 E10.14102
G1 X93.122 Y78.294 E10.14991
G1 X93.185 Y78.069 E10.15768
G1 X93.268 Y77.867 E10.16494
G1 X93.379 Y77.676 E10.17229
G1 X93.509 Y77.515 E10.17917
G1 X93.67 Y77.375 E10.18627
G1 X93.886 Y77.245 E10.19465
G1 X94.149 Y77.144 E10.20402
G1 X94.519 Y77.064 E10.21661
G1 X95.015 Y77.031 E10.23315
G1 X95.194 Y77.028 E10.2391
G1 X114.771 Y77.029 E10.89024
G1 X114.97 Y77.029 E10.89686
G1 X114.97 Y76.83 E10.90114
G1 X114.97 Y71.583 E11.07565
G1 X94.976 Y71.579 E11.74066
G1 X94.016 Y71.634 E11.77264
G1 X93.028 Y71.81 E11.80602
G1 X92.094 Y72.101 E11.83855
G1 X91.223 Y72.505 E11.87049
G1 X90.426 Y73.015 E11.90196
G1 X89.714 Y73.628 E11.93321
G1 X89.095 Y74.33 E11.96434
G1 X88.573 Y75.118 E11.99578
G1 X88.158 Y75.981 E12.02763
G1 X87.855 Y76.91 E12.06013
G1 X87.667 Y77.898 E12.09358
G1 X87.603 Y78.904 E12.1271
G1 X87.6 Y79.677 E12.15281
G1 X87.618 Y80.425 E12.1777
G1 X87.639 Y80.818 E12.19079
G1 X87.672 Y81.212 E12.20394
G1 X87.715 Y81.609 E12.21722
G1 X87.776 Y82.015 E12.23088
G1 X87.854 Y82.418 E12.24453
G1 X87.953 Y82.825 E12.25846
G1 X88.076 Y83.233 E12.27263
G1 X88.227 Y83.638 E12.28701
G1 X88.402 Y84.03 E12.30129
G1 X88.617 Y84.431 E12.31642
G1 X88.879 Y84.835 E12.33244
G1 X89.191 Y85.232 E12.34923
G1 X89.555 Y85.615 E12.36681
G1 X89.978 Y85.974 E12.38526
G1 X90.456 Y86.298 E12.40447
G1 X90.996 Y86.581 E12.42474
G1 X91.596 Y86.81 E12.4461
G1 X92.249 Y86.981 E12.46855
G1 X92.962 Y87.091 E12.49255
G1 X93.78 Y87.13 E12.51979
G1 X93.782 Y87.13 E12.51985
G1 X94.114 Y87.13 E12.5309
G1 X94.205 Y87.13 E12.53392
G1 X94.142 Y87.281 E12.53646
G1 X94.114 Y87.346 E12.5369
G1 X94.114 Y87.347 E12.53694
G1 X93.785 Y88.221 E12.568
G1 X93.484 Y89.114 E12.59934
G1 X93.213 Y90.029 E12.63108
G1 X92.975 Y90.96 E12.66304
G1 X92.769 Y91.91 E12.69537
G1 X92.598 Y92.878 E12.72807
G1 X92.462 Y93.864 E12.76117
G1 X92.364 Y94.864 E12.79459
G1 X92.298 Y95.934 E12.83025
G1 X92.278 Y96.97 E12.86471
G1 X92.298 Y98.006 E12.89917
G1 X92.358 Y99.023 E12.93306
G1 X92.449 Y99.977 E12.96493
G1 X92.582 Y100.964 E12.99806
G1 X92.749 Y101.933 E13.03076
G1 X92.95 Y102.884 E13.06309
G1 X93.187 Y103.818 E13.09514
G1 X93.453 Y104.733 E13.12683
G1 X93.752 Y105.63 E13.15828
G1 X94.055 Y106.443 E13.18714
G1 X94.079 Y106.507 E13.18941
G1 X94.139 Y106.651 E13.1946
G1 X94.144 Y106.664 E13.19506
G1 X94.205 Y106.81 E13.20033
G1 X94.079 Y106.81 E13.20136
G1 X94.01 Y106.81 E13.20343
G1 X93.796 Y106.81 E13.21055
G1 X93.781 Y106.81 E13.21105
G1 X93.039 Y106.841 E13.23575
G1 X92.319 Y106.943 E13.25994
G1 X91.66 Y107.11 E13.28255
G1 X91.057 Y107.334 E13.30394
G1 X90.511 Y107.609 E13.32428
G1 X90.024 Y107.93 E13.34368
G1 X89.596 Y108.288 E13.36223
G1 X89.228 Y108.668 E13.37983
G1 X88.911 Y109.062 E13.39665
G1 X88.645 Y109.465 E13.41271
G1 X88.424 Y109.867 E13.42797
G1 X88.244 Y110.262 E13.4424
G1 X88.09 Y110.666 E13.45678
G1 X87.966 Y111.073 E13.47093
