;FLAVOR:Marlin
;TIME:20510
;Filament used: 14.1682m
;Layer height: 0.2
;MINX:58.2
;MINY:53.731
;MINZ:0.2
;MAXX:172.8
;MAXY:205.62
;MAXZ:15.4
;Generated with Cura_SteamEngine 4.5.0
M140 S50
M105
M190 S50
M104 S200
M105
M109 S200
M82 ;absolute extrusion mode
; Ender 3 Custom Start G-code
G92 E0 ; Reset Extruder
G28 ; Home all axes
G1 Z2.0 F3000 ; Move Z Axis up little to prevent scratching of Heat Bed
G1 X0.1 Y20 Z0.3 F5000.0 ; Move to start position
G1 X0.1 Y200.0 Z0.3 F1500.0 E15 ; Draw the first line
G1 X0.4 Y200.0 Z0.3 F5000.0 ; Move to side a little
G1 X0.4 Y20 Z0.3 F1500.0 E30 ; Draw the second line
G92 E0 ; Reset Extruder
G1 Z2.0 F3000 ; Move Z Axis up little to prevent scratching of Heat Bed
G1 X5 Y20 Z0.3 F5000.0 ; Move over to prevent blob squish
G92 E0
G92 E0
G1 F2700 E-5
;LAYER_COUNT:77
;LAYER:0
M107
G0 F6000 X64.623 Y60.88 Z0.2
;TYPE:SKIRT
G1 F2700 E0
G1 F1200 X65.222 Y60.365 E0.02627
G1 X65.87 Y59.914 E0.05253
G1 X66.561 Y59.53 E0.07883
G1 X67.286 Y59.218 E0.10508
G1 X68.039 Y58.981 E0.13133
G1 X68.813 Y58.822 E0.15761
G1 X69.598 Y58.741 E0.18386
G1 X70 Y58.731 E0.19724
G1 X103.62 Y58.731 E1.31544
G1 X106.335 Y56.016 E1.44315
G1 X106.921 Y55.486 E1.46943
G1 X107.557 Y55.019 E1.49567
G1 X108.237 Y54.618 E1.52193
G1 X108.955 Y54.288 E1.54821
G1 X109.702 Y54.033 E1.57446
G1 X110.471 Y53.854 E1.60072
G1 X111.255 Y53.754 E1.62701
G1 X111.85 Y53.731 E1.64682
G1 X125.332 Y53.731 E2.09523
G1 X126.121 Y53.771 E2.1215
G1 X126.901 Y53.89 E2.14775
G1 X127.666 Y54.088 E2.17403
G1 X128.406 Y54.362 E2.20028
G1 X129.115 Y54.71 E2.22654
G1 X129.786 Y55.128 E2.25284
G1 X130.41 Y55.611 E2.27908
G1 X130.838 Y56.006 E2.29846
G1 X133.573 Y58.731 E2.42687
G1 X165 Y58.731 E3.47213
G1 X165.789 Y58.771 E3.49841
G1 X166.569 Y58.89 E3.52465
G1 X167.334 Y59.088 E3.55093
G1 X168.074 Y59.362 E3.57718
G1 X168.783 Y59.71 E3.60345
G1 X169.454 Y60.128 E3.62974
G1 X170.078 Y60.611 E3.65599
G1 X170.651 Y61.154 E3.68224
G1 X171.166 Y61.753 E3.70852
G1 X171.617 Y62.401 E3.73478
G1 X172.001 Y63.092 E3.76107
G1 X172.313 Y63.817 E3.78732
G1 X172.55 Y64.57 E3.81358
G1 X172.709 Y65.344 E3.83986
G1 X172.79 Y66.129 E3.86611
G1 X172.8 Y66.531 E3.87948
G1 X172.8 Y102.518 E5.07641
G1 X172.76 Y103.307 E5.10269
G1 X172.641 Y104.087 E5.12893
G1 X172.443 Y104.852 E5.15521
G1 X172.169 Y105.592 E5.18146
G1 X171.821 Y106.301 E5.20773
G1 X171.403 Y106.972 E5.23402
G1 X170.92 Y107.596 E5.26027
G1 X170.523 Y108.026 E5.27973
G1 X167.8 Y110.756 E5.40798
G1 X167.8 Y128.331 E5.99253
G1 X167.76 Y129.12 E6.0188
G1 X167.641 Y129.9 E6.04505
G1 X167.443 Y130.665 E6.07133
G1 X167.169 Y131.405 E6.09757
G1 X166.821 Y132.114 E6.12384
G1 X166.403 Y132.785 E6.15014
G1 X165.92 Y133.409 E6.17638
G1 X165.377 Y133.982 E6.20264
G1 X164.778 Y134.497 E6.22891
G1 X164.13 Y134.948 E6.25517
G1 X163.8 Y135.131 E6.26772
G1 X163.8 Y148.59 E6.71537
G1 X166.515 Y151.305 E6.84307
G1 X167.045 Y151.891 E6.86935
G1 X167.512 Y152.527 E6.8956
G1 X167.913 Y153.207 E6.92185
G1 X168.243 Y153.925 E6.94814
G1 X168.498 Y154.672 E6.97439
G1 X168.677 Y155.441 E7.00065
G1 X168.777 Y156.225 E7.02694
G1 X168.8 Y156.82 E7.04674
G1 X168.8 Y192.82 E8.24411
G1 X168.76 Y193.609 E8.27038
G1 X168.641 Y194.389 E8.29663
G1 X168.443 Y195.154 E8.32291
G1 X168.169 Y195.894 E8.34915
G1 X167.821 Y196.603 E8.37542
G1 X167.403 Y197.274 E8.40172
G1 X166.92 Y197.898 E8.42796
G1 X166.377 Y198.471 E8.45422
G1 X165.778 Y198.986 E8.48049
G1 X165.13 Y199.437 E8.50675
G1 X164.439 Y199.821 E8.53304
G1 X163.714 Y200.133 E8.55929
G1 X162.961 Y200.37 E8.58555
G1 X162.187 Y200.529 E8.61183
G1 X161.402 Y200.61 E8.63808
G1 X161 Y200.62 E8.65145
G1 X129.596 Y200.62 E9.69596
G1 X126.883 Y203.317 E9.82319
G1 X126.296 Y203.845 E9.84945
G1 X125.909 Y204.14 E9.86564
G1 X125.246 Y204.57 E9.89192
G1 X124.544 Y204.93 E9.91816
G1 X123.808 Y205.218 E9.94445
G1 X123.048 Y205.43 E9.97069
G1 X122.269 Y205.564 E9.99698
G1 X121.337 Y205.62 E10.02803
G1 X107.872 Y205.62 E10.47588
G1 X107.083 Y205.58 E10.50216
G1 X106.303 Y205.461 E10.5284
G1 X105.538 Y205.263 E10.55468
G1 X104.798 Y204.989 E10.58093
G1 X104.089 Y204.641 E10.6072
G1 X103.418 Y204.223 E10.63349
G1 X102.794 Y203.74 E10.65974
G1 X102.369 Y203.348 E10.67897
G1 X99.629 Y200.62 E10.80757
G1 X66 Y200.62 E11.92607
G1 X65.211 Y200.58 E11.95235
G1 X64.431 Y200.461 E11.97859
G1 X63.666 Y200.263 E12.00487
G1 X62.926 Y199.989 E12.03112
G1 X62.217 Y199.641 E12.05739
G1 X61.546 Y199.223 E12.08368
G1 X60.922 Y198.74 E12.10993
G1 X60.349 Y198.197 E12.13618
G1 X59.834 Y197.598 E12.16246
G1 X59.383 Y196.95 E12.18871
G1 X58.999 Y196.259 E12.21501
G1 X58.687 Y195.534 E12.24126
G1 X58.45 Y194.781 E12.26751
G1 X58.291 Y194.007 E12.2938
G1 X58.21 Y193.222 E12.32004
G1 X58.2 Y192.82 E12.33342
G1 X58.2 Y131.02 E14.38889
G1 X58.24 Y130.231 E14.41517
G1 X58.359 Y129.451 E14.44141
G1 X58.557 Y128.686 E14.4677
G1 X58.831 Y127.946 E14.49394
G1 X59.179 Y127.237 E14.52021
G1 X59.597 Y126.566 E14.5465
G1 X60.08 Y125.942 E14.57275
G1 X60.623 Y125.369 E14.59901
G1 X61.222 Y124.854 E14.62528
G1 X61.87 Y124.403 E14.65154
G1 X62.2 Y124.22 E14.66409
G1 X62.2 Y66.531 E16.58283
G1 X62.24 Y65.742 E16.60911
G1 X62.359 Y64.962 E16.63535
G1 X62.557 Y64.197 E16.66163
G1 X62.831 Y63.457 E16.68788
G1 X63.179 Y62.748 E16.71415
G1 X63.597 Y62.077 E16.74044
G1 X64.08 Y61.453 E16.76669
G1 X64.623 Y60.88 E16.79294
G0 F6000 X65.016 Y61.061
G1 F1200 X65.611 Y60.573 E16.81854
G1 X66.253 Y60.15 E16.84411
G1 X66.936 Y59.795 E16.86971
G1 X67.651 Y59.514 E16.89526
G1 X68.393 Y59.308 E16.92088
G1 X69.151 Y59.18 E16.94644
G1 X70 Y59.131 E16.97473
G1 X103.784 Y59.131 E18.09839
G1 X106.617 Y56.298 E18.23164
G1 X107.189 Y55.784 E18.25722
G1 X107.811 Y55.331 E18.28281
G1 X108.476 Y54.945 E18.30839
G1 X109.178 Y54.63 E18.33398
G1 X109.909 Y54.39 E18.35957
G1 X110.66 Y54.227 E18.38513
G1 X111.425 Y54.143 E18.41073
G1 X111.85 Y54.131 E18.42487
G1 X125.332 Y54.131 E18.87328
G1 X126.1 Y54.171 E18.89886
G1 X126.86 Y54.29 E18.92445
G1 X127.603 Y54.488 E18.95002
G1 X128.322 Y54.762 E18.97561
G1 X129.008 Y55.109 E19.00118
G1 X129.655 Y55.525 E19.02676
G1 X130.255 Y56.006 E19.05234
G1 X130.555 Y56.289 E19.06606
G1 X133.407 Y59.131 E19.19997
G1 X165 Y59.131 E20.25076
G1 X165.768 Y59.171 E20.27634
G1 X166.528 Y59.29 E20.30192
G1 X167.271 Y59.488 E20.3275
G1 X167.99 Y59.762 E20.35309
G1 X168.676 Y60.109 E20.37866
G1 X169.323 Y60.525 E20.40424
G1 X169.923 Y61.006 E20.42982
G1 X170.47 Y61.547 E20.45541
G1 X170.958 Y62.142 E20.481
G1 X171.381 Y62.784 E20.50658
G1 X171.736 Y63.467 E20.53218
G1 X172.017 Y64.182 E20.55773
G1 X172.223 Y64.924 E20.58334
G1 X172.351 Y65.682 E20.60891
G1 X172.4 Y66.531 E20.63719
G1 X172.4 Y102.518 E21.83413
G1 X172.36 Y103.286 E21.85971
G1 X172.241 Y104.046 E21.88529
G1 X172.043 Y104.789 E21.91087
G1 X171.769 Y105.508 E21.93646
G1 X171.422 Y106.194 E21.96203
G1 X171.006 Y106.841 E21.98761
G1 X170.525 Y107.441 E22.01319
G1 X170.239 Y107.744 E22.02705
G1 X167.4 Y110.59 E22.16075
G1 X167.4 Y128.331 E22.75082
G1 X167.36 Y129.099 E22.77639
G1 X167.241 Y129.859 E22.80198
G1 X167.043 Y130.602 E22.82756
G1 X166.769 Y131.321 E22.85315
G1 X166.422 Y132.007 E22.87872
G1 X166.006 Y132.654 E22.9043
G1 X165.525 Y133.254 E22.92988
G1 X164.984 Y133.801 E22.95547
G1 X164.389 Y134.289 E22.98106
G1 X163.747 Y134.712 E23.00663
G1 X163.4 Y134.892 E23.01963
G1 X163.4 Y148.754 E23.48068
G1 X166.233 Y151.587 E23.61394
G1 X166.747 Y152.159 E23.63952
G1 X167.2 Y152.781 E23.66511
G1 X167.586 Y153.446 E23.69068
G1 X167.901 Y154.148 E23.71628
G1 X168.141 Y154.879 E23.74187
G1 X168.304 Y155.63 E23.76743
G1 X168.388 Y156.395 E23.79302
G1 X168.4 Y156.82 E23.80716
G1 X168.4 Y192.82 E25.00453
G1 X168.36 Y193.588 E25.03011
G1 X168.241 Y194.348 E25.05569
G1 X168.043 Y195.091 E25.08127
G1 X167.769 Y195.81 E25.10686
G1 X167.422 Y196.496 E25.13243
G1 X167.006 Y197.143 E25.15801
G1 X166.525 Y197.743 E25.18359
G1 X165.984 Y198.29 E25.20918
G1 X165.389 Y198.778 E25.23477
G1 X164.747 Y199.201 E25.26034
G1 X164.064 Y199.556 E25.28595
G1 X163.349 Y199.837 E25.3115
G1 X162.607 Y200.043 E25.33711
G1 X161.849 Y200.171 E25.36268
G1 X161 Y200.22 E25.39096
G1 X129.431 Y200.22 E26.44095
G1 X126.601 Y203.034 E26.57369
G1 X126.028 Y203.547 E26.59927
G1 X125.674 Y203.816 E26.61406
G1 X125.029 Y204.233 E26.6396
G1 X124.343 Y204.582 E26.6652
G1 X123.625 Y204.857 E26.69078
G1 X122.882 Y205.057 E26.71637
G1 X122.122 Y205.178 E26.74196
G1 X121.337 Y205.22 E26.76811
G1 X107.872 Y205.22 E27.21596
G1 X107.104 Y205.18 E27.24154
G1 X106.344 Y205.061 E27.26712
G1 X105.601 Y204.863 E27.2927
G1 X104.882 Y204.589 E27.31829
G1 X104.196 Y204.242 E27.34386
G1 X103.549 Y203.826 E27.36944
G1 X102.949 Y203.345 E27.39502
G1 X102.651 Y203.064 E27.40864
G1 X99.794 Y200.22 E27.54272
G1 X66 Y200.22 E28.66671
G1 X65.232 Y200.18 E28.69229
G1 X64.472 Y200.061 E28.71788
G1 X63.729 Y199.863 E28.74345
G1 X63.01 Y199.589 E28.76904
G1 X62.324 Y199.242 E28.79461
G1 X61.677 Y198.826 E28.8202
G1 X61.077 Y198.345 E28.84577
G1 X60.53 Y197.804 E28.87136
G1 X60.042 Y197.209 E28.89696
G1 X59.619 Y196.567 E28.92253
G1 X59.264 Y195.884 E28.94813
G1 X58.983 Y195.169 E28.97368
G1 X58.777 Y194.427 E28.99929
G1 X58.649 Y193.669 E29.02486
G1 X58.6 Y192.82 E29.05315
G1 X58.6 Y131.02 E31.10862
G1 X58.64 Y130.252 E31.1342
G1 X58.759 Y129.492 E31.15979
G1 X58.957 Y128.749 E31.18536
G1 X59.231 Y128.03 E31.21095
G1 X59.578 Y127.344 E31.23652
G1 X59.994 Y126.697 E31.26211
G1 X60.475 Y126.097 E31.28768
G1 X61.016 Y125.55 E31.31327
G1 X61.611 Y125.062 E31.33887
G1 X62.253 Y124.639 E31.36444
G1 X62.6 Y124.459 E31.37744
G1 X62.6 Y66.531 E33.30413
G1 X62.64 Y65.763 E33.32971
G1 X62.759 Y65.003 E33.3553
G1 X62.957 Y64.26 E33.38087
G1 X63.231 Y63.541 E33.40646
G1 X63.578 Y62.855 E33.43203
G1 X63.994 Y62.208 E33.45762
G1 X64.475 Y61.608 E33.48319
G1 X65.016 Y61.061 E33.50878
G0 F6000 X65.408 Y61.247
G1 F1200 X65.998 Y60.788 E33.53364
G1 X66.634 Y60.393 E33.55855
G1 X67.308 Y60.069 E33.58342
G1 X68.013 Y59.819 E33.6083
G1 X68.741 Y59.645 E33.63319
G1 X69.483 Y59.55 E33.65807
G1 X70 Y59.531 E33.67528
G1 X103.95 Y59.531 E34.80446
G1 X106.9 Y56.581 E34.94322
G1 X107.457 Y56.081 E34.96812
G1 X108.063 Y55.644 E34.99297
G1 X108.713 Y55.273 E35.01786
G1 X109.399 Y54.974 E35.04275
G1 X110.113 Y54.75 E35.06764
G1 X110.846 Y54.603 E35.0925
G1 X111.85 Y54.531 E35.12598
G1 X125.332 Y54.531 E35.57439
G1 X126.079 Y54.571 E35.59928
G1 X126.817 Y54.69 E35.62414
G1 X127.539 Y54.888 E35.64904
G1 X128.235 Y55.161 E35.67391
G1 X128.898 Y55.508 E35.69879
G1 X129.521 Y55.923 E35.72369
G1 X130.273 Y56.572 E35.75673
G1 X133.243 Y59.531 E35.89617
G1 X165 Y59.531 E36.95241
G1 X165.747 Y59.571 E36.97729
G1 X166.485 Y59.69 E37.00216
G1 X167.207 Y59.888 E37.02706
G1 X167.903 Y60.161 E37.05192
G1 X168.566 Y60.508 E37.07681
G1 X169.189 Y60.923 E37.10171
G1 X169.763 Y61.402 E37.12658
G1 X170.284 Y61.939 E37.15146
G1 X170.743 Y62.529 E37.17632
G1 X171.138 Y63.165 E37.20123
G1 X171.462 Y63.839 E37.2261
G1 X171.712 Y64.544 E37.25098
G1 X171.886 Y65.272 E37.27587
G1 X171.981 Y66.014 E37.30075
G1 X172 Y66.531 E37.31796
G1 X172 Y102.518 E38.51489
G1 X171.96 Y103.265 E38.53977
G1 X171.841 Y104.003 E38.56464
G1 X171.643 Y104.725 E38.58954
G1 X171.37 Y105.421 E38.6144
G1 X171.023 Y106.084 E38.63929
G1 X170.608 Y106.707 E38.66419
G1 X169.956 Y107.461 E38.69734
G1 X167 Y110.425 E38.83657
G1 X167 Y128.331 E39.43213
G1 X166.96 Y129.078 E39.45701
G1 X166.841 Y129.816 E39.48187
G1 X166.643 Y130.538 E39.50677
G1 X166.37 Y131.234 E39.53164
G1 X166.023 Y131.897 E39.55653
G1 X165.608 Y132.52 E39.58143
G1 X165.129 Y133.094 E39.60629
G1 X164.592 Y133.615 E39.63118
G1 X164.002 Y134.074 E39.65604
G1 X163.366 Y134.469 E39.68094
G1 X163 Y134.645 E39.69445
G1 X163 Y148.92 E40.16924
G1 X165.95 Y151.87 E40.308
G1 X166.45 Y152.427 E40.33289
G1 X166.887 Y153.033 E40.35774
G1 X167.258 Y153.683 E40.38263
G1 X167.557 Y154.369 E40.40752
G1 X167.781 Y155.083 E40.43241
G1 X167.928 Y155.816 E40.45728
G1 X168 Y156.82 E40.49076
G1 X168 Y192.82 E41.68812
G1 X167.96 Y193.567 E41.713
G1 X167.841 Y194.305 E41.73786
G1 X167.643 Y195.027 E41.76277
G1 X167.37 Y195.723 E41.78763
G1 X167.023 Y196.386 E41.81252
G1 X166.608 Y197.009 E41.83742
G1 X166.129 Y197.583 E41.86228
G1 X165.592 Y198.104 E41.88717
G1 X165.002 Y198.563 E41.91203
G1 X164.366 Y198.958 E41.93693
G1 X163.692 Y199.282 E41.96181
G1 X162.987 Y199.532 E41.98668
G1 X162.259 Y199.706 E42.01158
G1 X161.517 Y199.801 E42.03646
G1 X161 Y199.82 E42.05367
G1 X129.266 Y199.82 E43.10914
G1 X126.319 Y202.75 E43.24736
G1 X125.44 Y203.492 E43.28562
G1 X124.811 Y203.897 E43.3105
G1 X124.143 Y204.233 E43.33538
G1 X123.442 Y204.496 E43.36028
G1 X122.718 Y204.682 E43.38514
G1 X121.978 Y204.791 E43.41002
G1 X121.337 Y204.82 E43.43136
G1 X107.872 Y204.82 E43.87921
G1 X107.125 Y204.78 E43.90409
G1 X106.387 Y204.661 E43.92895
G1 X105.665 Y204.463 E43.95385
G1 X104.969 Y204.19 E43.97872
G1 X104.306 Y203.843 E44.00361
G1 X103.683 Y203.428 E44.0285
G1 X102.933 Y202.781 E44.06145
G1 X99.959 Y199.82 E44.20103
G1 X66 Y199.82 E45.33051
G1 X65.253 Y199.78 E45.35539
G1 X64.515 Y199.661 E45.38026
G1 X63.793 Y199.463 E45.40516
G1 X63.097 Y199.19 E45.43002
G1 X62.434 Y198.843 E45.45491
G1 X61.811 Y198.428 E45.47981
G1 X61.237 Y197.949 E45.50467
G1 X60.716 Y197.412 E45.52956
G1 X60.257 Y196.822 E45.55442
G1 X59.862 Y196.186 E45.57932
G1 X59.538 Y195.512 E45.6042
G1 X59.288 Y194.807 E45.62908
G1 X59.114 Y194.079 E45.65397
G1 X59.019 Y193.337 E45.67885
G1 X59 Y192.82 E45.69606
G1 X59 Y131.02 E47.75153
G1 X59.04 Y130.273 E47.77642
G1 X59.159 Y129.535 E47.80128
G1 X59.357 Y128.813 E47.82618
G1 X59.63 Y128.117 E47.85105
G1 X59.977 Y127.454 E47.87593
G1 X60.392 Y126.831 E47.90083
G1 X60.871 Y126.257 E47.9257
G1 X61.408 Y125.736 E47.95058
G1 X61.998 Y125.277 E47.97545
G1 X62.634 Y124.882 E48.00035
G1 X63 Y124.706 E48.01385
G1 X63 Y66.531 E49.94876
G1 X63.04 Y65.784 E49.97364
G1 X63.159 Y65.046 E49.99851
G1 X63.357 Y64.324 E50.02341
G1 X63.63 Y63.628 E50.04827
G1 X63.977 Y62.965 E50.07316
G1 X64.392 Y62.342 E50.09806
G1 X64.871 Y61.768 E50.12293
G1 X65.408 Y61.247 E50.14781
G0 F6000 X65.265 Y61.933
G1 F1200 X65.799 Y61.44 E50.17198
G1 X66.384 Y61.01 E50.19613
G1 X67.013 Y60.646 E50.2203
G1 X67.678 Y60.353 E50.24447
G1 X68.371 Y60.135 E50.26864
G1 X69.083 Y59.995 E50.29277
G1 X70 Y59.931 E50.32334
G1 X104.116 Y59.931 E51.45805
G1 X107.183 Y56.864 E51.60231
G1 X107.724 Y56.38 E51.62645
G1 X108.315 Y55.957 E51.65062
G1 X108.949 Y55.603 E51.67478
G1 X109.618 Y55.32 E51.69894
G1 X110.314 Y55.112 E51.7231
G1 X111.029 Y54.982 E51.74727
G1 X111.85 Y54.931 E51.77463
G1 X125.332 Y54.931 E52.22304
G1 X126.057 Y54.971 E52.24719
G1 X126.774 Y55.09 E52.27136
G1 X127.473 Y55.288 E52.29553
G1 X128.146 Y55.561 E52.31968
G1 X128.785 Y55.906 E52.34384
G1 X129.382 Y56.32 E52.368
G1 X129.991 Y56.856 E52.39498
G1 X133.077 Y59.931 E52.53988
G1 X165 Y59.931 E53.60164
G1 X165.725 Y59.971 E53.62579
G1 X166.442 Y60.09 E53.64997
G1 X167.141 Y60.288 E53.67413
G1 X167.814 Y60.561 E53.69829
G1 X168.453 Y60.906 E53.72244
G1 X169.05 Y61.32 E53.7466
G1 X169.598 Y61.796 E53.77075
G1 X170.091 Y62.33 E53.79492
G1 X170.521 Y62.915 E53.81907
G1 X170.885 Y63.544 E53.84324
G1 X171.178 Y64.209 E53.86741
G1 X171.396 Y64.902 E53.89157
G1 X171.536 Y65.614 E53.91571
G1 X171.6 Y66.531 E53.94628
G1 X171.6 Y102.518 E55.14321
G1 X171.56 Y103.243 E55.16736
G1 X171.441 Y103.96 E55.19154
G1 X171.243 Y104.659 E55.2157
G1 X170.97 Y105.332 E55.23985
G1 X170.625 Y105.971 E55.26401
G1 X170.211 Y106.568 E55.28817
G1 X169.673 Y107.179 E55.31525
G1 X166.6 Y110.26 E55.45998
G1 X166.6 Y128.331 E56.06103
G1 X166.56 Y129.056 E56.08518
G1 X166.441 Y129.773 E56.10935
G1 X166.243 Y130.472 E56.13351
G1 X165.97 Y131.145 E56.15767
G1 X165.625 Y131.784 E56.18182
G1 X165.211 Y132.381 E56.20598
G1 X164.735 Y132.929 E56.23013
G1 X164.201 Y133.422 E56.2543
G1 X163.616 Y133.852 E56.27845
G1 X162.987 Y134.216 E56.30262
G1 X162.6 Y134.387 E56.31669
G1 X162.6 Y149.086 E56.80558
G1 X165.667 Y152.153 E56.94984
G1 X166.151 Y152.694 E56.97399
G1 X166.574 Y153.285 E56.99816
G1 X166.928 Y153.919 E57.02231
G1 X167.211 Y154.588 E57.04647
G1 X167.419 Y155.284 E57.07063
