;FLAVOR:Marlin
;TIME:10866
;Filament used: 4.23985m
;Layer height: 0.12
;MINX:58.796
;MINY:43.668
;MINZ:0.12
;MAXX:173.027
;MAXY:173.612
;MAXZ:3.96
;Generated with Cura_SteamEngine 4.4.1
M140 S50
M105
M190 S50
M104 S200
M105
M109 S200
M82 ;absolute extrusion mode
M201 X500.00 Y500.00 Z100.00 E5000.00 ;Setup machine max acceleration
M203 X500.00 Y500.00 Z10.00 E50.00 ;Setup machine max feedrate
M204 P500.00 R1000.00 T500.00 ;Setup Print/Retract/Travel acceleration
M205 X8.00 Y8.00 Z0.40 E5.00 ;Setup Jerk
M220 S100 ;Reset Feedrate
M221 S100 ;Reset Flowrate

G28 ;Home

G92 E0 ;Reset Extruder
G1 Z2.0 F3000 ;Move Z Axis up
G1 X10.1 Y20 Z0.28 F5000.0 ;Move to start position
G1 X10.1 Y200.0 Z0.28 F1500.0 E15 ;Draw the first line
G1 X10.4 Y200.0 Z0.28 F5000.0 ;Move to side a little
G1 X10.4 Y20 Z0.28 F1500.0 E30 ;Draw the second line
G92 E0 ;Reset Extruder
G1 Z2.0 F3000 ;Move Z Axis up

G92 E0
G92 E0
G1 F2700 E-5
;LAYER_COUNT:33
;LAYER:0
M107
G0 F6000 X63.803 Y51.766 Z0.12
;TYPE:SKIRT
G1 F2700 E0
G1 F1200 X65.061 Y50.365 E0.03758
G1 X65.763 Y49.676 E0.0572
G1 X67.108 Y48.513 E0.09269
G1 X67.908 Y47.907 E0.11272
G1 X69.49 Y46.861 E0.15056
G1 X70.337 Y46.374 E0.17006
G1 X71.952 Y45.576 E0.20601
G1 X72.878 Y45.19 E0.22603
G1 X74.655 Y44.581 E0.26352
G1 X75.639 Y44.314 E0.28386
G1 X77.515 Y43.935 E0.32206
G1 X78.542 Y43.798 E0.34274
G1 X80.496 Y43.668 E0.38182
G1 X81.533 Y43.668 E0.40251
G1 X83.483 Y43.798 E0.44151
G1 X84.507 Y43.935 E0.46213
G1 X86.385 Y44.314 E0.50036
G1 X87.367 Y44.58 E0.52066
G1 X89.141 Y45.187 E0.55808
G1 X90.077 Y45.577 E0.57832
G1 X91.743 Y46.402 E0.61542
G1 X92.605 Y46.899 E0.63527
G1 X94.14 Y47.921 E0.67207
G1 X94.924 Y48.519 E0.69175
G1 X96.308 Y49.718 E0.72829
G1 X97.016 Y50.415 E0.74812
G1 X98.237 Y51.781 E0.78468
G1 X98.853 Y52.565 E0.80458
G1 X99.888 Y54.073 E0.84108
G1 X100.404 Y54.94 E0.86121
G1 X101.241 Y56.579 E0.89794
G1 X101.647 Y57.523 E0.91845
G1 X102.267 Y59.274 E0.95552
G1 X102.55 Y60.285 E0.97647
G1 X102.935 Y62.132 E1.01412
G1 X103.081 Y63.19 E1.03543
G1 X103.213 Y65.112 E1.07388
G1 X103.231 Y65.649 E1.0846
G1 X103.227 Y77.147 E1.31406
G1 X103.208 Y77.683 E1.32476
G1 X103.079 Y79.545 E1.36201
G1 X102.934 Y80.597 E1.3832
G1 X102.549 Y82.445 E1.42087
G1 X102.269 Y83.449 E1.44167
G1 X101.652 Y85.198 E1.47868
G1 X101.467 Y85.629 E1.48804
G1 X101.921 Y85.44 E1.49785
G1 X103.698 Y84.831 E1.53534
G1 X104.678 Y84.565 E1.55561
G1 X106.554 Y84.185 E1.5938
G1 X107.585 Y84.047 E1.61456
G1 X109.539 Y83.917 E1.65364
G1 X110.576 Y83.917 E1.67434
G1 X112.526 Y84.047 E1.71334
G1 X113.554 Y84.185 E1.73404
G1 X115.432 Y84.565 E1.77227
G1 X116.409 Y84.83 E1.79248
G1 X118.184 Y85.437 E1.82991
G1 X119.118 Y85.825 E1.85009
G1 X120.784 Y86.649 E1.88719
G1 X121.652 Y87.15 E1.90719
G1 X123.146 Y88.145 E1.94301
G1 X124.351 Y86.39 E1.98549
G1 X124.976 Y85.595 E2.00567
G1 X126.641 Y83.74 E2.05542
G1 X127.343 Y83.051 E2.07504
G1 X129.151 Y81.487 E2.12275
G1 X129.947 Y80.883 E2.14269
G1 X132.041 Y79.496 E2.19282
G1 X132.893 Y79.006 E2.21243
G1 X135.063 Y77.934 E2.26073
G1 X135.988 Y77.549 E2.28072
G1 X138.359 Y76.736 E2.33074
G1 X139.346 Y76.468 E2.35115
G1 X141.848 Y75.963 E2.40209
G1 X142.871 Y75.826 E2.42269
G1 X145.476 Y75.652 E2.47479
G1 X146.516 Y75.652 E2.49554
G1 X149.119 Y75.826 E2.54761
G1 X150.142 Y75.963 E2.5682
G1 X152.645 Y76.468 E2.61916
G1 X153.628 Y76.734 E2.63948
G1 X155.997 Y77.545 E2.68945
G1 X156.929 Y77.933 E2.7096
G1 X159.151 Y79.032 E2.75907
G1 X160.016 Y79.532 E2.77901
G1 X162.063 Y80.895 E2.82808
G1 X162.85 Y81.494 E2.84782
G1 X164.695 Y83.094 E2.89656
G1 X165.397 Y83.785 E2.91621
G1 X167.026 Y85.605 E2.96496
G1 X167.646 Y86.394 E2.98498
G1 X169.027 Y88.407 E3.0337
G1 X169.541 Y89.272 E3.05378
G1 X170.657 Y91.457 E3.10274
G1 X171.063 Y92.401 E3.12325
G1 X171.89 Y94.736 E3.17268
G1 X172.174 Y95.75 E3.1937
G1 X172.687 Y98.214 E3.24392
G1 X172.833 Y99.27 E3.2652
G1 X173.009 Y101.833 E3.31646
G1 X173.027 Y102.369 E3.32717
G1 X173.023 Y117.686 E3.63283
G1 X173.004 Y118.222 E3.64354
G1 X172.831 Y120.726 E3.69363
G1 X172.686 Y121.778 E3.71482
G1 X172.173 Y124.241 E3.76502
G1 X171.892 Y125.249 E3.78591
G1 X171.068 Y127.582 E3.83528
G1 X170.659 Y128.532 E3.85592
G1 X169.542 Y130.719 E3.90493
G1 X169.027 Y131.585 E3.92504
G1 X167.644 Y133.6 E3.97381
G1 X167.028 Y134.384 E3.99371
G1 X165.402 Y136.203 E4.0424
G1 X164.697 Y136.898 E4.06215
G1 X162.847 Y138.502 E4.11102
G1 X162.059 Y139.102 E4.13078
G1 X161.344 Y139.578 E4.14792
G1 X161.851 Y140.429 E4.16769
G1 X162.409 Y141.521 E4.19216
G1 X162.815 Y142.466 E4.21269
G1 X163.228 Y143.632 E4.23737
G1 X163.513 Y144.649 E4.25845
G1 X163.769 Y145.881 E4.28356
G1 X163.914 Y146.933 E4.30475
G1 X164.002 Y148.213 E4.33036
G1 X164.02 Y148.752 E4.34112
G1 X164.016 Y156.432 E4.49438
G1 X163.997 Y156.97 E4.50513
G1 X163.912 Y158.19 E4.52953
G1 X163.768 Y159.235 E4.55058
G1 X163.512 Y160.467 E4.57569
G1 X163.232 Y161.471 E4.59649
G1 X162.822 Y162.635 E4.62112
G1 X162.409 Y163.596 E4.64199
G1 X161.85 Y164.689 E4.66649
G1 X161.339 Y165.547 E4.68642
G1 X160.648 Y166.555 E4.71081
G1 X160.032 Y167.341 E4.73074
G1 X159.221 Y168.249 E4.75504
G1 X158.517 Y168.943 E4.77476
G1 X157.592 Y169.746 E4.79921
G1 X156.8 Y170.35 E4.81908
G1 X155.781 Y171.028 E4.84351
G1 X154.921 Y171.524 E4.86332
G1 X153.81 Y172.074 E4.88806
G1 X152.877 Y172.463 E4.90823
G1 X151.695 Y172.868 E4.93317
G1 X150.713 Y173.134 E4.95347
G1 X149.462 Y173.387 E4.97894
G1 X148.437 Y173.525 E4.99958
G1 X147.137 Y173.612 E5.02558
G1 X146.095 Y173.612 E5.04638
G1 X144.795 Y173.525 E5.07238
G1 X143.771 Y173.387 E5.093
G1 X142.519 Y173.134 E5.11849
G1 X141.536 Y172.868 E5.13881
G1 X140.354 Y172.463 E5.16374
G1 X139.424 Y172.076 E5.18385
G1 X138.314 Y171.527 E5.20856
G1 X137.451 Y171.029 E5.22844
G1 X136.429 Y170.349 E5.25294
G1 X135.638 Y169.746 E5.27279
G1 X134.715 Y168.945 E5.29718
G1 X134.01 Y168.25 E5.31693
G1 X133.198 Y167.341 E5.34126
G1 X132.582 Y166.555 E5.36118
G1 X131.893 Y165.55 E5.3855
G1 X131.378 Y164.684 E5.40561
G1 X130.82 Y163.59 E5.43012
G1 X130.412 Y162.641 E5.45073
G1 X130 Y161.473 E5.47545
G1 X129.72 Y160.469 E5.49625
G1 X129.464 Y159.24 E5.5213
G1 X129.318 Y158.184 E5.54257
G1 X129.23 Y156.904 E5.56818
G1 X129.212 Y156.365 E5.57894
G1 X129.216 Y148.685 E5.7322
G1 X129.235 Y148.147 E5.74295
G1 X129.32 Y146.927 E5.76735
G1 X129.465 Y145.876 E5.78852
G1 X129.722 Y144.644 E5.81364
G1 X130.001 Y143.646 E5.83432
G1 X130.411 Y142.482 E5.85895
G1 X130.818 Y141.531 E5.87959
G1 X131.375 Y140.438 E5.90407
G1 X131.535 Y140.169 E5.91032
G1 X129.932 Y139.102 E5.94875
G1 X129.143 Y138.502 E5.96853
G1 X127.295 Y136.9 E6.01733
G1 X126.587 Y136.203 E6.03716
G1 X124.961 Y134.383 E6.08586
G1 X124.597 Y133.918 E6.09765
G1 X123.97 Y134.462 E6.11421
G1 X123.181 Y135.063 E6.13401
G1 X121.65 Y136.082 E6.17071
G1 X120.789 Y136.579 E6.19055
G1 X119.123 Y137.404 E6.22765
G1 X118.188 Y137.794 E6.24786
G1 X116.412 Y138.402 E6.28533
G1 X115.434 Y138.667 E6.30555
G1 X113.557 Y139.047 E6.34376
G1 X112.527 Y139.185 E6.3645
G1 X110.575 Y139.315 E6.40354
G1 X109.539 Y139.315 E6.42422
G1 X107.586 Y139.185 E6.46328
G1 X106.556 Y139.047 E6.48402
G1 X104.679 Y138.667 E6.52223
G1 X103.704 Y138.403 E6.54239
G1 X101.928 Y137.796 E6.57985
G1 X100.99 Y137.405 E6.60013
G1 X99.324 Y136.58 E6.63723
G1 X98.461 Y136.082 E6.65711
G1 X96.928 Y135.061 E6.69387
G1 X96.144 Y134.464 E6.71353
G1 X95.534 Y133.935 E6.72965
G1 X94.924 Y134.464 E6.74576
G1 X94.14 Y135.061 E6.76542
G1 X92.609 Y136.081 E6.80214
G1 X91.742 Y136.582 E6.82212
G1 X90.076 Y137.406 E6.85921
G1 X89.146 Y137.793 E6.87931
G1 X87.371 Y138.401 E6.91675
G1 X86.391 Y138.667 E6.93702
G1 X84.514 Y139.047 E6.97524
G1 X83.484 Y139.185 E6.99598
G1 X81.532 Y139.315 E7.03502
G1 X80.496 Y139.315 E7.05569
G1 X78.543 Y139.185 E7.09475
G1 X77.513 Y139.047 E7.11549
G1 X75.636 Y138.667 E7.15371
G1 X74.661 Y138.403 E7.17386
G1 X72.885 Y137.796 E7.21132
G1 X71.947 Y137.405 E7.2316
G1 X70.281 Y136.58 E7.2687
G1 X69.42 Y136.083 E7.28854
G1 X67.886 Y135.062 E7.32531
G1 X67.098 Y134.462 E7.34508
G1 X65.713 Y133.261 E7.38166
G1 X65.005 Y132.564 E7.40149
G1 X63.786 Y131.199 E7.43801
G1 X63.175 Y130.42 E7.45777
G1 X62.139 Y128.912 E7.49428
G1 X61.618 Y128.036 E7.51462
G1 X60.782 Y126.395 E7.55137
G1 X60.377 Y125.451 E7.57187
G1 X59.758 Y123.698 E7.60897
G1 X59.478 Y122.695 E7.62975
G1 X59.093 Y120.851 E7.66734
G1 X58.946 Y119.791 E7.6887
G1 X58.814 Y117.869 E7.72714
G1 X58.796 Y117.332 E7.73787
G1 X58.8 Y105.833 E7.96734
G1 X58.819 Y105.297 E7.97804
G1 X58.948 Y103.436 E8.01527
G1 X59.094 Y102.38 E8.03655
G1 X59.48 Y100.532 E8.07422
G1 X59.759 Y99.532 E8.09494
G1 X60.376 Y97.783 E8.13195
G1 X60.782 Y96.837 E8.15249
G1 X61.617 Y95.198 E8.1892
G1 X62.139 Y94.321 E8.20957
G1 X63.179 Y92.808 E8.24621
G1 X63.805 Y92.013 E8.2664
G1 X64.272 Y91.493 E8.28035
G1 X63.788 Y90.952 E8.29483
G1 X63.174 Y90.169 E8.31469
G1 X62.138 Y88.66 E8.35122
G1 X61.619 Y87.787 E8.37149
G1 X60.783 Y86.147 E8.40822
G1 X60.377 Y85.202 E8.42875
G1 X59.758 Y83.449 E8.46585
G1 X59.477 Y82.445 E8.48665
G1 X59.092 Y80.6 E8.52426
G1 X58.946 Y79.541 E8.5456
G1 X58.814 Y77.619 E8.58404
G1 X58.796 Y77.082 E8.59477
G1 X58.8 Y65.584 E8.82422
G1 X58.819 Y65.048 E8.83492
G1 X58.948 Y63.186 E8.87217
G1 X59.094 Y62.129 E8.89347
G1 X59.48 Y60.282 E8.93112
G1 X59.759 Y59.283 E8.95182
G1 X60.376 Y57.534 E8.98883
G1 X60.781 Y56.59 E9.00933
G1 X61.616 Y54.95 E9.04606
G1 X62.14 Y54.069 E9.06651
G1 X63.18 Y52.557 E9.10313
G1 X63.803 Y51.766 E9.12323
G0 F6000 X64.101 Y52.033
G1 F1200 X65.359 Y50.632 E9.1608
G1 X66.025 Y49.978 E9.17943
G1 X67.37 Y48.815 E9.21491
G1 X68.129 Y48.24 E9.23392
G1 X69.711 Y47.194 E9.27176
G1 X70.514 Y46.733 E9.29024
G1 X72.129 Y45.935 E9.32619
G1 X73.008 Y45.569 E9.34519
G1 X74.785 Y44.96 E9.38268
G1 X75.719 Y44.707 E9.40199
G1 X77.595 Y44.328 E9.44018
G1 X78.569 Y44.197 E9.4598
G1 X80.523 Y44.067 E9.49888
G1 X81.506 Y44.067 E9.51849
G1 X83.456 Y44.197 E9.55749
G1 X84.428 Y44.327 E9.57706
G1 X86.306 Y44.706 E9.6153
G1 X87.238 Y44.959 E9.63457
G1 X89.012 Y45.566 E9.67199
G1 X89.9 Y45.936 E9.69118
G1 X91.566 Y46.761 E9.72828
G1 X92.383 Y47.232 E9.7471
G1 X93.918 Y48.254 E9.7839
G1 X94.662 Y48.821 E9.80257
G1 X96.046 Y50.02 E9.83911
G1 X96.718 Y50.681 E9.85793
G1 X97.939 Y52.047 E9.89449
G1 X98.523 Y52.791 E9.91336
G1 X99.558 Y54.299 E9.94986
G1 X100.047 Y55.121 E9.96895
G1 X100.884 Y56.76 E10.00568
G1 X101.27 Y57.656 E10.02515
G1 X101.89 Y59.407 E10.06221
G1 X102.158 Y60.367 E10.0821
G1 X102.543 Y62.214 E10.11976
G1 X102.682 Y63.217 E10.13996
G1 X102.814 Y65.139 E10.17841
G1 X102.831 Y65.649 E10.18859
G1 X102.827 Y77.147 E10.41805
G1 X102.809 Y77.655 E10.42819
G1 X102.68 Y79.517 E10.46544
G1 X102.542 Y80.515 E10.48554
G1 X102.157 Y82.363 E10.52321
G1 X101.891 Y83.316 E10.54296
G1 X101.274 Y85.065 E10.57997
G1 X100.885 Y85.972 E10.59967
G1 X100.643 Y86.446 E10.61029
G1 X101.175 Y86.183 E10.62213
G1 X102.051 Y85.819 E10.64106
G1 X103.828 Y85.21 E10.67855
G1 X104.758 Y84.957 E10.69778
G1 X106.634 Y84.577 E10.73598
G1 X107.612 Y84.446 E10.75567
G1 X109.566 Y84.316 E10.79475
G1 X110.549 Y84.316 E10.81437
G1 X112.499 Y84.446 E10.85337
G1 X113.475 Y84.577 E10.87302
G1 X115.353 Y84.957 E10.91126
G1 X116.279 Y85.208 E10.9304
G1 X118.054 Y85.815 E10.96784
G1 X118.941 Y86.184 E10.98701
G1 X120.607 Y87.008 E11.0241
G1 X121.43 Y87.483 E11.04306
G1 X122.965 Y88.506 E11.07988
G1 X123.245 Y88.719 E11.0869
G1 X123.296 Y88.633 E11.08889
G1 X124.681 Y86.616 E11.13772
G1 X125.274 Y85.862 E11.15686
G1 X126.939 Y84.007 E11.20661
G1 X127.605 Y83.353 E11.22523
G1 X129.413 Y81.789 E11.27294
G1 X130.168 Y81.217 E11.29184
G1 X132.262 Y79.83 E11.34197
G1 X133.07 Y79.364 E11.36058
G1 X135.24 Y78.292 E11.40888
G1 X136.118 Y77.927 E11.42786
G1 X138.489 Y77.114 E11.47788
G1 X139.425 Y76.86 E11.49723
G1 X141.927 Y76.355 E11.54817
G1 X142.898 Y76.225 E11.56772
G1 X145.503 Y76.051 E11.61982
G1 X146.49 Y76.051 E11.63952
G1 X149.093 Y76.225 E11.69158
G1 X150.063 Y76.355 E11.71111
G1 X152.566 Y76.86 E11.76207
G1 X153.499 Y77.113 E11.78136
G1 X155.868 Y77.924 E11.83133
G1 X156.752 Y78.292 E11.85043
G1 X158.974 Y79.391 E11.8999
G1 X159.794 Y79.865 E11.91881
G1 X161.841 Y81.228 E11.96788
G1 X162.588 Y81.796 E11.98661
G1 X164.433 Y83.396 E12.03535
G1 X165.099 Y84.052 E12.054
G1 X166.728 Y85.872 E12.10274
G1 X167.316 Y86.621 E12.12175
G1 X168.697 Y88.634 E12.17046
G1 X169.185 Y89.454 E12.18951
G1 X170.301 Y91.639 E12.23847
G1 X170.686 Y92.534 E12.25791
G1 X171.513 Y94.869 E12.30735
G1 X171.783 Y95.832 E12.3273
G1 X172.296 Y98.296 E12.37753
G1 X172.434 Y99.297 E12.3977
G1 X172.61 Y101.86 E12.44896
G1 X172.627 Y102.369 E12.45913
G1 X172.623 Y117.686 E12.76479
G1 X172.605 Y118.194 E12.77494
G1 X172.432 Y120.698 E12.82503
G1 X172.295 Y121.697 E12.84515
G1 X171.782 Y124.16 E12.89536
G1 X171.515 Y125.115 E12.91515
G1 X170.691 Y127.448 E12.96452
G1 X170.303 Y128.35 E12.98412
G1 X169.186 Y130.537 E13.03312
G1 X168.697 Y131.359 E13.05221
G1 X167.314 Y133.374 E13.10098
G1 X166.73 Y134.118 E13.11986
G1 X165.104 Y135.937 E13.16855
G1 X164.435 Y136.596 E13.18729
G1 X162.585 Y138.2 E13.23615
G1 X161.837 Y138.769 E13.2549
G1 X160.785 Y139.469 E13.28012
G1 X161.008 Y139.794 E13.28799
G1 X161.495 Y140.611 E13.30697
G1 X162.053 Y141.703 E13.33144
G1 X162.438 Y142.599 E13.3509
G1 X162.851 Y143.765 E13.37559
G1 X163.121 Y144.73 E13.39558
G1 X163.377 Y145.962 E13.4207
G1 X163.515 Y146.96 E13.4408
G1 X163.603 Y148.24 E13.46641
G1 X163.62 Y148.752 E13.47663
G1 X163.616 Y156.432 E13.62989
G1 X163.598 Y156.942 E13.64007
G1 X163.513 Y158.162 E13.66448
G1 X163.376 Y159.154 E13.68446
G1 X163.12 Y160.386 E13.70958
G1 X162.855 Y161.338 E13.7293
G1 X162.445 Y162.502 E13.75392
G1 X162.053 Y163.414 E13.77373
G1 X161.494 Y164.507 E13.79823
G1 X161.01 Y165.321 E13.81713
G1 X160.319 Y166.329 E13.84152
G1 X159.734 Y167.074 E13.86042
G1 X158.923 Y167.982 E13.88472
G1 X158.255 Y168.641 E13.90344
G1 X157.33 Y169.444 E13.92789
G1 X156.578 Y170.017 E13.94676
G1 X155.559 Y170.695 E13.97118
G1 X154.743 Y171.166 E13.98998
G1 X153.632 Y171.716 E14.01472
G1 X152.748 Y172.084 E14.03383
G1 X151.566 Y172.489 E14.05877
G1 X150.634 Y172.742 E14.07804
G1 X149.383 Y172.995 E14.10351
G1 X148.41 Y173.125 E14.1231
G1 X147.11 Y173.212 E14.1491
G1 X146.122 Y173.212 E14.16882
G1 X144.822 Y173.125 E14.19482
G1 X143.85 Y172.995 E14.21439
G1 X142.598 Y172.742 E14.23988
G1 X141.665 Y172.489 E14.25917
G1 X140.483 Y172.084 E14.2841
G1 X139.601 Y171.717 E14.30317
G1 X138.491 Y171.168 E14.32788
G1 X137.673 Y170.696 E14.34673
G1 X136.651 Y170.016 E14.37122
G1 X135.9 Y169.444 E14.39006
G1 X134.977 Y168.643 E14.41445
G1 X134.308 Y167.984 E14.43319
G1 X133.496 Y167.075 E14.45751
G1 X132.912 Y166.329 E14.47642
G1 X132.223 Y165.324 E14.50074
G1 X131.734 Y164.502 E14.51982
G1 X131.176 Y163.408 E14.54433
G1 X130.789 Y162.508 E14.56388
G1 X130.377 Y161.34 E14.5886
G1 X130.111 Y160.387 E14.60834
G1 X129.855 Y159.158 E14.6334
G1 X129.717 Y158.157 E14.65356
G1 X129.629 Y156.877 E14.67917
G1 X129.612 Y156.365 E14.68939
G1 X129.616 Y148.685 E14.84265
G1 X129.634 Y148.175 E14.85284
G1 X129.719 Y146.955 E14.87724
G1 X129.857 Y145.958 E14.89733
G1 X130.114 Y144.726 E14.92244
G1 X130.378 Y143.779 E14.94206
G1 X130.788 Y142.615 E14.96669
G1 X131.175 Y141.713 E14.98628
G1 X131.732 Y140.62 E15.01076
G1 X132.073 Y140.046 E15.02408
G1 X130.153 Y138.769 E15.0701
G1 X129.405 Y138.2 E15.08885
G1 X127.557 Y136.598 E15.13766
G1 X126.886 Y135.936 E15.15647
G1 X125.26 Y134.116 E15.20517
G1 X124.677 Y133.374 E15.224
G1 X124.654 Y133.34 E15.22482
G1 X123.708 Y134.16 E15.24981
G1 X122.959 Y134.73 E15.26859
G1 X121.428 Y135.749 E15.30529
G1 X120.612 Y136.22 E15.32409
G1 X118.946 Y137.045 E15.36119
G1 X118.059 Y137.415 E15.38037
G1 X116.283 Y138.023 E15.41783
G1 X115.354 Y138.275 E15.43704
G1 X113.477 Y138.655 E15.47526
G1 X112.501 Y138.786 E15.49491
G1 X110.549 Y138.916 E15.53395
G1 X109.566 Y138.916 E15.55357
G1 X107.613 Y138.786 E15.59263
G1 X106.636 Y138.655 E15.6123
G1 X104.759 Y138.275 E15.65052
G1 X103.834 Y138.024 E15.66965
G1 X102.058 Y137.417 E15.7071
G1 X101.167 Y137.046 E15.72636
G1 X99.501 Y136.221 E15.76346
G1 X98.683 Y135.749 E15.78231
