;FLAVOR:Marlin
;TIME:4265
;Filament used: 2.2879m
;Layer height: 0.2
;MINX:28.72
;MINY:78.008
;MINZ:0.2
;MAXX:153.619
;MAXY:142.03
;MAXZ:2
;Generated with Cura_SteamEngine 4.4.1
M140 S50
M105
M190 S50
M104 S200
M105
M109 S200
M82 ;absolute extrusion mode
M201 X500.00 Y500.00 Z100.00 E5000.00 ;Setup machine max acceleration
M203 X500.00 Y500.00 Z10.00 E50.00 ;Setup machine max feedrate
M204 P500.00 R1000.00 T500.00 ;Setup Print/Retract/Travel acceleration
M205 X8.00 Y8.00 Z0.40 E5.00 ;Setup Jerk
M220 S100 ;Reset Feedrate
M221 S100 ;Reset Flowrate

G28 ;Home

G92 E0 ;Reset Extruder
G1 Z2.0 F3000 ;Move Z Axis up
G1 X10.1 Y20 Z0.28 F5000.0 ;Move to start position
G1 X10.1 Y200.0 Z0.28 F1500.0 E15 ;Draw the first line
G1 X10.4 Y200.0 Z0.28 F5000.0 ;Move to side a little
G1 X10.4 Y20 Z0.28 F1500.0 E30 ;Draw the second line
G92 E0 ;Reset Extruder
G1 Z2.0 F3000 ;Move Z Axis up

G92 E0
G92 E0
G1 F2700 E-5
;LAYER_COUNT:10
;LAYER:0
M107
G0 F6000 X38.92 Y88.819 Z0.2
;TYPE:SKIRT
G1 F2700 E0
G1 F1200 X39.846 Y88.432 E0.03338
G1 X41.031 Y88.025 E0.07505
G1 X42.013 Y87.758 E0.1089
G1 X43.254 Y87.506 E0.15102
G1 X44.292 Y87.367 E0.18585
G1 X45.594 Y87.281 E0.22925
G1 X46.624 Y87.281 E0.26351
G1 X47.921 Y87.367 E0.30674
G1 X48.951 Y87.505 E0.34131
G1 X50.202 Y87.758 E0.38376
G1 X51.183 Y88.024 E0.41756
G1 X52.363 Y88.428 E0.45905
G1 X53.302 Y88.819 E0.49288
G1 X54.409 Y89.368 E0.53397
G1 X55.117 Y89.777 E0.56117
G1 X55.503 Y89.397 E0.57919
G1 X56.608 Y88.437 E0.62787
G1 X57.406 Y87.829 E0.66124
G1 X58.632 Y87.014 E0.7102
G1 X59.485 Y86.522 E0.74295
G1 X60.814 Y85.863 E0.79229
G1 X61.747 Y85.473 E0.82593
G1 X63.169 Y84.985 E0.87593
G1 X64.149 Y84.719 E0.90971
G1 X65.641 Y84.416 E0.96034
G1 X66.68 Y84.277 E0.99521
G1 X68.242 Y84.174 E1.04727
G1 X69.269 Y84.174 E1.08143
G1 X70.828 Y84.277 E1.1334
G1 X71.863 Y84.415 E1.16813
G1 X73.363 Y84.719 E1.21903
G1 X74.338 Y84.984 E1.25263
G1 X75.756 Y85.469 E1.30248
G1 X76.699 Y85.862 E1.33646
G1 X78.029 Y86.522 E1.38584
G1 X78.881 Y87.014 E1.41857
G1 X80.108 Y87.83 E1.46758
G1 X80.542 Y88.16 E1.48571
G1 X81.037 Y87.606 E1.51042
G1 X81.741 Y86.912 E1.5433
G1 X83.124 Y85.712 E1.6042
G1 X83.918 Y85.107 E1.6374
G1 X85.451 Y84.088 E1.69863
G1 X86.304 Y83.596 E1.73138
G1 X87.966 Y82.772 E1.79308
G1 X88.901 Y82.382 E1.82677
G1 X90.68 Y81.772 E1.88932
G1 X91.662 Y81.505 E1.92317
G1 X93.529 Y81.127 E1.98653
G1 X94.563 Y80.989 E2.02122
G1 X96.516 Y80.86 E2.08632
G1 X97.545 Y80.86 E2.12055
G1 X99.495 Y80.989 E2.18555
G1 X100.525 Y81.126 E2.22011
G1 X102.401 Y81.505 E2.28376
G1 X103.381 Y81.771 E2.31754
G1 X105.155 Y82.378 E2.3799
G1 X106.096 Y82.771 E2.41382
G1 X107.759 Y83.596 E2.47556
G1 X108.612 Y84.088 E2.50831
G1 X110.146 Y85.108 E2.56958
G1 X110.936 Y85.709 E2.6026
G1 X111.41 Y86.12 E2.62346
G1 X112.135 Y85.309 E2.65964
G1 X112.842 Y84.613 E2.69264
G1 X114.411 Y83.253 E2.7617
G1 X115.199 Y82.654 E2.79462
G1 X116.936 Y81.498 E2.86402
G1 X117.792 Y81.003 E2.89691
G1 X119.676 Y80.069 E2.96685
G1 X120.613 Y79.678 E3.00062
G1 X122.63 Y78.987 E3.07153
G1 X123.609 Y78.721 E3.10527
G1 X125.726 Y78.292 E3.17712
G1 X126.762 Y78.154 E3.21188
G1 X128.977 Y78.008 E3.28571
G1 X130.004 Y78.008 E3.31987
G1 X132.214 Y78.154 E3.39353
G1 X133.246 Y78.292 E3.42816
G1 X135.373 Y78.722 E3.50034
G1 X136.352 Y78.987 E3.53407
G1 X138.363 Y79.675 E3.60476
G1 X139.303 Y80.067 E3.63864
G1 X141.189 Y81.002 E3.70865
G1 X142.046 Y81.497 E3.74157
G1 X143.784 Y82.654 E3.81101
G1 X144.568 Y83.251 E3.84379
G1 X146.136 Y84.609 E3.91278
G1 X146.845 Y85.306 E3.94585
G1 X148.228 Y86.853 E4.01487
G1 X148.846 Y87.641 E4.04817
G1 X150.018 Y89.35 E4.1171
G1 X150.534 Y90.217 E4.15065
G1 X151.481 Y92.074 E4.21999
G1 X151.886 Y93.018 E4.25415
G1 X152.587 Y95.001 E4.32411
G1 X152.869 Y96.01 E4.35895
G1 X153.305 Y98.103 E4.43006
G1 X153.451 Y99.158 E4.46548
G1 X153.601 Y101.336 E4.5381
G1 X153.619 Y101.873 E4.55597
G1 X153.618 Y114.825 E4.98675
G1 X153.6 Y115.36 E5.00456
G1 X153.45 Y117.538 E5.07717
G1 X153.304 Y118.592 E5.11256
G1 X152.868 Y120.686 E5.1837
G1 X152.589 Y121.687 E5.21826
G1 X151.891 Y123.669 E5.28815
G1 X151.481 Y124.625 E5.32275
G1 X150.533 Y126.482 E5.3921
G1 X150.019 Y127.346 E5.42553
G1 X148.845 Y129.058 E5.49458
G1 X148.224 Y129.849 E5.52802
G1 X146.842 Y131.393 E5.59695
G1 X146.143 Y132.081 E5.62957
G1 X144.573 Y133.444 E5.69872
G1 X143.781 Y134.047 E5.73183
G1 X143.773 Y134.052 E5.73214
G1 X143.762 Y134.084 E5.73326
G1 X143.314 Y135.011 E5.76751
G1 X142.908 Y135.727 E5.79489
G1 X142.484 Y136.394 E5.82117
G1 X141.995 Y137.014 E5.84744
G1 X141.647 Y137.387 E5.8644
G1 X140.989 Y138.047 E5.8954
G1 X140.404 Y138.577 E5.92166
G1 X139.734 Y139.068 E5.94928
G1 X138.844 Y139.65 E5.98465
G1 X138.162 Y140.048 E6.01092
G1 X137.718 Y140.261 E6.02729
G1 X136.637 Y140.737 E6.06658
G1 X135.634 Y141.099 E6.10205
G1 X134.4 Y141.451 E6.14473
G1 X133.512 Y141.649 E6.17499
G1 X132.171 Y141.867 E6.22017
G1 X131.327 Y141.957 E6.2484
G1 X129.935 Y142.03 E6.29477
G1 X129.119 Y142.03 E6.32191
G1 X127.727 Y141.957 E6.36827
G1 X126.884 Y141.867 E6.39647
G1 X125.542 Y141.649 E6.44169
G1 X124.648 Y141.449 E6.47216
G1 X123.414 Y141.096 E6.51484
G1 X122.419 Y140.737 E6.55003
G1 X121.339 Y140.262 E6.58927
G1 X120.633 Y139.908 E6.61554
G1 X120.213 Y139.652 E6.6319
G1 X119.322 Y139.07 E6.66729
G1 X118.684 Y138.606 E6.69353
G1 X118.064 Y138.047 E6.7213
G1 X117.406 Y137.387 E6.75229
G1 X116.878 Y136.8 E6.77855
G1 X116.411 Y136.163 E6.80482
G1 X116.141 Y135.72 E6.82208
G1 X115.736 Y135.004 E6.84944
G1 X115.382 Y134.298 E6.87571
G1 X115.316 Y134.125 E6.88187
G1 X115.198 Y134.046 E6.88659
G1 X114.408 Y133.445 E6.9196
G1 X112.839 Y132.084 E6.98869
G1 X112.135 Y131.39 E7.02157
G1 X111.604 Y130.796 E7.04807
G1 X110.94 Y131.373 E7.07732
G1 X110.373 Y131.805 E7.10103
G1 X110.026 Y132.524 E7.12759
G1 X109.668 Y133.155 E7.15172
G1 X109.244 Y133.821 E7.17797
G1 X108.755 Y134.441 E7.20424
G1 X108.409 Y134.812 E7.22111
G1 X107.829 Y135.394 E7.24844
G1 X107.244 Y135.924 E7.27469
G1 X106.573 Y136.416 E7.30237
G1 X105.787 Y136.93 E7.3336
G1 X105.105 Y137.328 E7.35987
G1 X104.651 Y137.545 E7.3766
G1 X103.698 Y137.963 E7.41122
G1 X102.713 Y138.318 E7.44604
G1 X101.624 Y138.63 E7.48372
G1 X100.725 Y138.831 E7.51436
G1 X99.541 Y139.023 E7.55425
G1 X98.704 Y139.113 E7.58225
G1 X97.476 Y139.178 E7.62315
G1 X96.652 Y139.178 E7.65056
G1 X95.424 Y139.113 E7.69146
G1 X94.587 Y139.023 E7.71946
G1 X93.403 Y138.831 E7.75935
G1 X92.504 Y138.63 E7.78999
G1 X91.415 Y138.318 E7.82767
G1 X90.43 Y137.963 E7.86249
G1 X89.477 Y137.545 E7.8971
G1 X88.771 Y137.192 E7.92336
G1 X88.341 Y136.93 E7.9401
G1 X87.555 Y136.416 E7.97134
G1 X86.917 Y135.951 E7.9976
G1 X86.304 Y135.399 E8.02504
G1 X85.723 Y134.817 E8.05239
G1 X85.194 Y134.23 E8.07867
G1 X84.727 Y133.593 E8.10494
G1 X84.454 Y133.147 E8.12233
G1 X84.097 Y132.516 E8.14645
G1 X83.774 Y131.87 E8.17047
G1 X83.121 Y131.372 E8.19778
G1 X81.738 Y130.171 E8.2587
G1 X81.04 Y129.484 E8.29128
G1 X80.134 Y128.472 E8.33646
G1 X79.804 Y128.992 E8.35694
G1 X79.315 Y129.613 E8.38323
G1 X78.961 Y129.991 E8.40045
G1 X78.497 Y130.456 E8.4223
G1 X77.912 Y130.987 E8.44858
G1 X77.238 Y131.48 E8.47635
G1 X76.608 Y131.891 E8.50137
G1 X75.925 Y132.288 E8.52765
G1 X75.489 Y132.497 E8.54373
G1 X74.728 Y132.832 E8.57138
G1 X73.735 Y133.191 E8.6065
G1 X72.863 Y133.441 E8.63668
G1 X71.957 Y133.643 E8.66755
G1 X71.01 Y133.796 E8.69945
G1 X70.178 Y133.885 E8.72728
G1 X69.196 Y133.937 E8.75999
G1 X68.372 Y133.937 E8.7874
G1 X67.389 Y133.885 E8.82014
G1 X66.557 Y133.796 E8.84797
G1 X65.61 Y133.643 E8.87987
G1 X64.704 Y133.441 E8.91075
G1 X63.832 Y133.191 E8.94092
G1 X62.839 Y132.832 E8.97604
G1 X62.078 Y132.497 E9.00369
G1 X61.373 Y132.143 E9.02993
G1 X60.959 Y131.891 E9.04605
G1 X60.329 Y131.48 E9.07107
G1 X59.69 Y131.015 E9.09736
G1 X59.07 Y130.456 E9.12512
G1 X58.606 Y129.991 E9.14697
G1 X58.077 Y129.405 E9.17323
G1 X57.61 Y128.768 E9.1995
G1 X57.34 Y128.326 E9.21672
G1 X57.054 Y127.821 E9.23603
G1 X56.91 Y127.534 E9.24671
G1 X56.608 Y127.304 E9.25933
G1 X56.176 Y126.928 E9.27838
G1 X55.887 Y127.294 E9.29389
G1 X55.543 Y127.663 E9.31067
G1 X55.157 Y128.051 E9.32887
G1 X54.572 Y128.582 E9.35515
G1 X53.888 Y129.084 E9.38337
G1 X53.362 Y129.427 E9.40426
G1 X52.679 Y129.824 E9.43053
G1 X52.243 Y130.032 E9.4466
G1 X51.609 Y130.311 E9.46964
G1 X50.615 Y130.67 E9.50479
G1 X49.889 Y130.878 E9.52991
G1 X48.989 Y131.08 E9.56059
G1 X48.199 Y131.208 E9.5872
G1 X47.36 Y131.297 E9.61527
G1 X46.541 Y131.34 E9.64254
G1 X45.723 Y131.34 E9.66975
G1 X44.905 Y131.297 E9.69699
G1 X44.066 Y131.208 E9.72506
G1 X43.276 Y131.08 E9.75167
G1 X42.376 Y130.878 E9.78235
G1 X41.65 Y130.67 E9.80747
G1 X40.656 Y130.311 E9.84262
G1 X40.022 Y130.032 E9.86566
G1 X39.316 Y129.678 E9.89193
G1 X38.903 Y129.427 E9.908
G1 X38.377 Y129.084 E9.92889
G1 X37.739 Y128.619 E9.95515
G1 X37.108 Y128.051 E9.98339
G1 X36.722 Y127.663 E10.00159
G1 X36.194 Y127.076 E10.02785
G1 X35.729 Y126.438 E10.05411
G1 X35.466 Y126.007 E10.0709
G1 X35.228 Y125.587 E10.08696
G1 X35.205 Y125.542 E10.08864
G1 X35.137 Y125.49 E10.09148
G1 X34.216 Y124.69 E10.13206
G1 X33.519 Y124.003 E10.16461
G1 X32.708 Y123.097 E10.20505
G1 X32.083 Y122.3 E10.23874
G1 X31.394 Y121.293 E10.27932
G1 X30.88 Y120.427 E10.31282
G1 X30.324 Y119.335 E10.35357
G1 X29.921 Y118.395 E10.38759
G1 X29.509 Y117.229 E10.42872
G1 X29.227 Y116.222 E10.4635
G1 X28.971 Y114.994 E10.50522
G1 X28.825 Y113.931 E10.54091
G1 X28.738 Y112.652 E10.58355
G1 X28.72 Y112.117 E10.60135
G1 X28.726 Y104.409 E10.85772
G1 X28.745 Y103.874 E10.87553
G1 X28.827 Y102.695 E10.91484
G1 X28.973 Y101.642 E10.95019
G1 X29.23 Y100.411 E10.99202
G1 X29.508 Y99.414 E11.02645
G1 X29.918 Y98.25 E11.06749
G1 X30.325 Y97.299 E11.1019
G1 X30.881 Y96.208 E11.14262
G1 X31.398 Y95.34 E11.17623
G1 X32.089 Y94.332 E11.21688
G1 X32.707 Y93.543 E11.25021
G1 X33.517 Y92.637 E11.29063
G1 X34.214 Y91.95 E11.32318
G1 X35.134 Y91.15 E11.36373
G1 X35.933 Y90.541 E11.39714
G1 X36.954 Y89.862 E11.43793
G1 X37.813 Y89.367 E11.4709
G1 X38.92 Y88.819 E11.51198
G0 F6000 X39.097 Y89.177
G1 F1200 X39.976 Y88.81 E11.54367
G1 X41.161 Y88.403 E11.58534
G1 X42.092 Y88.15 E11.61743
G1 X43.333 Y87.898 E11.65955
G1 X44.318 Y87.766 E11.6926
G1 X45.62 Y87.68 E11.736
G1 X46.598 Y87.68 E11.76853
G1 X47.895 Y87.766 E11.81176
G1 X48.872 Y87.897 E11.84455
G1 X50.123 Y88.15 E11.887
G1 X51.053 Y88.402 E11.91904
G1 X52.233 Y88.806 E11.96053
G1 X53.124 Y89.177 E11.99263
G1 X54.231 Y89.726 E12.03373
G1 X55.042 Y90.195 E12.06489
G1 X55.174 Y90.283 E12.07016
G1 X55.766 Y89.699 E12.09782
G1 X56.871 Y88.739 E12.14651
G1 X57.627 Y88.162 E12.17814
G1 X58.853 Y87.347 E12.2271
G1 X59.663 Y86.88 E12.2582
G1 X60.992 Y86.221 E12.30754
G1 X61.877 Y85.852 E12.33943
G1 X63.299 Y85.364 E12.38943
G1 X64.228 Y85.111 E12.42146
G1 X65.72 Y84.808 E12.4721
G1 X66.706 Y84.676 E12.50518
G1 X68.268 Y84.573 E12.55725
G1 X69.243 Y84.573 E12.58968
G1 X70.802 Y84.676 E12.64164
G1 X71.784 Y84.807 E12.67459
G1 X73.284 Y85.111 E12.7255
G1 X74.209 Y85.362 E12.75738
G1 X75.627 Y85.847 E12.80722
G1 X76.521 Y86.22 E12.83944
G1 X77.851 Y86.88 E12.88882
G1 X78.66 Y87.347 E12.91989
G1 X79.887 Y88.163 E12.9689
G1 X80.594 Y88.702 E12.99847
G1 X81.335 Y87.872 E13.03548
G1 X82.003 Y87.214 E13.06666
G1 X83.386 Y86.014 E13.12757
G1 X84.14 Y85.44 E13.15908
G1 X85.673 Y84.421 E13.22031
G1 X86.482 Y83.954 E13.25138
G1 X88.144 Y83.13 E13.31308
G1 X89.031 Y82.76 E13.34504
G1 X90.81 Y82.15 E13.40759
G1 X91.742 Y81.897 E13.43971
G1 X93.609 Y81.519 E13.50307
G1 X94.589 Y81.388 E13.53595
G1 X96.542 Y81.259 E13.60105
G1 X97.518 Y81.259 E13.63352
G1 X99.468 Y81.388 E13.69851
G1 X100.445 Y81.519 E13.7313
G1 X102.321 Y81.898 E13.79496
G1 X103.252 Y82.15 E13.82704
G1 X105.026 Y82.757 E13.8894
G1 X105.919 Y83.129 E13.92157
G1 X107.582 Y83.954 E13.98332
G1 X108.39 Y84.421 E14.01436
G1 X109.924 Y85.441 E14.07563
G1 X110.674 Y86.011 E14.10696
G1 X111.446 Y86.68 E14.14094
G1 X112.433 Y85.576 E14.19019
G1 X113.104 Y84.915 E14.22152
G1 X114.673 Y83.555 E14.29058
G1 X115.42 Y82.987 E14.32179
G1 X117.157 Y81.831 E14.39119
G1 X117.97 Y81.361 E14.42242
G1 X119.854 Y80.427 E14.49236
G1 X120.743 Y80.056 E14.5244
G1 X122.76 Y79.365 E14.59531
G1 X123.688 Y79.113 E14.6273
G1 X125.805 Y78.684 E14.69914
G1 X126.788 Y78.553 E14.73212
G1 X129.003 Y78.407 E14.80596
G1 X129.978 Y78.407 E14.83838
G1 X132.188 Y78.553 E14.91205
G1 X133.166 Y78.684 E14.94487
G1 X135.293 Y79.114 E15.01704
G1 X136.222 Y79.365 E15.04905
G1 X138.233 Y80.053 E15.11974
G1 X139.125 Y80.425 E15.15189
G1 X141.011 Y81.36 E15.2219
G1 X141.825 Y81.83 E15.25316
G1 X143.563 Y82.987 E15.32261
G1 X144.307 Y83.553 E15.3537
G1 X145.875 Y84.911 E15.42269
G1 X146.547 Y85.573 E15.45407
G1 X147.93 Y87.12 E15.52308
G1 X148.516 Y87.867 E15.55466
G1 X149.688 Y89.576 E15.62358
G1 X150.177 Y90.399 E15.65543
G1 X151.124 Y92.256 E15.72476
G1 X151.509 Y93.152 E15.75719
G1 X152.21 Y95.135 E15.82715
G1 X152.477 Y96.092 E15.86019
G1 X152.913 Y98.185 E15.9313
G1 X153.052 Y99.186 E15.96491
G1 X153.202 Y101.364 E16.03753
G1 X153.219 Y101.873 E16.05446
G1 X153.218 Y114.825 E16.48525
G1 X153.201 Y115.332 E16.50212
G1 X153.051 Y117.51 E16.57473
G1 X152.913 Y118.51 E16.60831
G1 X152.477 Y120.604 E16.67945
G1 X152.212 Y121.554 E16.71225
G1 X151.514 Y123.536 E16.78214
G1 X151.125 Y124.443 E16.81497
G1 X150.177 Y126.3 E16.88431
G1 X149.689 Y127.12 E16.91605
G1 X148.515 Y128.832 E16.9851
G1 X147.926 Y129.582 E17.01681
G1 X146.544 Y131.126 E17.08573
G1 X145.881 Y131.779 E17.11669
G1 X144.311 Y133.142 E17.18584
G1 X143.56 Y133.714 E17.21724
G1 X143.437 Y133.796 E17.22215
G1 X143.376 Y133.971 E17.22832
G1 X142.966 Y134.814 E17.25949
G1 X142.56 Y135.53 E17.28687
G1 X142.146 Y136.179 E17.31247
G1 X141.668 Y136.781 E17.33804
G1 X141.364 Y137.105 E17.35282
G1 X140.706 Y137.765 E17.38382
G1 X140.135 Y138.28 E17.40939
G1 X139.515 Y138.733 E17.43493
G1 X138.625 Y139.315 E17.4703
G1 X137.96 Y139.702 E17.49589
G1 X137.557 Y139.894 E17.51074
G1 X136.476 Y140.37 E17.55002
G1 X135.524 Y140.714 E17.58369
G1 X134.29 Y141.066 E17.62637
G1 X133.447 Y141.254 E17.6551
G1 X132.106 Y141.472 E17.70028
G1 X131.307 Y141.558 E17.72701
G1 X129.915 Y141.631 E17.77337
G1 X129.139 Y141.631 E17.79918
G1 X127.747 Y141.558 E17.84555
G1 X126.948 Y141.472 E17.87227
G1 X125.606 Y141.254 E17.91749
G1 X124.758 Y141.065 E17.94639
G1 X123.524 Y140.712 E17.98908
G1 X122.58 Y140.371 E18.02246
G1 X121.5 Y139.896 E18.06171
G1 X120.813 Y139.55 E18.08729
G1 X120.432 Y139.317 E18.10214
G1 X119.541 Y138.735 E18.13754
G1 X118.92 Y138.282 E18.16311
G1 X118.347 Y137.765 E18.18878
G1 X117.689 Y137.105 E18.21977
G1 X117.175 Y136.532 E18.24538
G1 X116.724 Y135.91 E18.27093
G1 X116.489 Y135.523 E18.28599
G1 X116.084 Y134.807 E18.31335
G1 X115.741 Y134.119 E18.33892
G1 X115.645 Y133.864 E18.34798
G1 X115.419 Y133.713 E18.35702
G1 X114.67 Y133.143 E18.38832
G1 X113.101 Y131.782 E18.45741
G1 X112.433 Y131.124 E18.48859
G1 X111.639 Y130.236 E18.52821
G1 X110.678 Y131.071 E18.57056
G1 X110.06 Y131.541 E18.59638
G1 X109.678 Y132.327 E18.62545
G1 X109.32 Y132.958 E18.64958
G1 X108.906 Y133.606 E18.67515
G1 X108.428 Y134.208 E18.70072
G1 X108.126 Y134.53 E18.7154
G1 X107.546 Y135.112 E18.74273
G1 X106.975 Y135.627 E18.76831
G1 X106.354 Y136.081 E18.79389
G1 X105.568 Y136.595 E18.82513
G1 X104.903 Y136.982 E18.85072
G1 X104.49 Y137.179 E18.86594
G1 X103.537 Y137.597 E18.90055
G1 X102.603 Y137.934 E18.93357
G1 X101.514 Y138.246 E18.97125
G1 X100.661 Y138.437 E19.00032
G1 X99.477 Y138.629 E19.04022
G1 X98.683 Y138.714 E19.06678
G1 X97.455 Y138.779 E19.10768
G1 X96.673 Y138.779 E19.13369
G1 X95.445 Y138.714 E19.17459
G1 X94.651 Y138.629 E19.20115
G1 X93.467 Y138.437 E19.24104
G1 X92.614 Y138.246 E19.27012
G1 X91.525 Y137.934 E19.30779
G1 X90.591 Y137.597 E19.34082
G1 X89.638 Y137.179 E19.37543
G1 X88.95 Y136.834 E19.40103
G1 X88.56 Y136.595 E19.41624
G1 X87.774 Y136.081 E19.44748
G1 X87.153 Y135.627 E19.47307
G1 X86.587 Y135.116 E19.49843
G1 X86.006 Y134.534 E19.52578
G1 X85.492 Y133.962 E19.55136
G1 X85.039 Y133.34 E19.57695
G1 X84.802 Y132.95 E19.59213
G1 X84.445 Y132.319 E19.61624
G1 X84.102 Y131.631 E19.64181
